(G-CODE GENERATED BY FLATCAM v8.994 - www.flatcam.org - Version Date: 2020/11/7)

(Name: tuxpin-F_Cu.gbr_iso_combined_cnc)
(Type: G-code from Geometry)
(Units: MM)

(Created on Sunday, 23 January 2022 at 17:27)

(This preprocessor is used with a motion controller loaded with GRBL firmware.)
(It is configured to be compatible with almost any version of GRBL firmware.)

(TOOL DIAMETER: 0.1996 mm)
(Feedrate_XY: 170.0 mm/min)
(Feedrate_Z: 120.0 mm/min)
(Feedrate rapids 1500.0 mm/min)

(Z_Cut: -0.1 mm)
(DepthPerCut: 0.8 mm <=>1 passes)
(Z_Move: 2.0 mm)
(Z Start: None mm)
(Z End: 15.0 mm)
(X,Y End: 0.0000, 0.0000 mm)
(Steps per circle: 64)
(Steps per circle: 64)
(Preprocessor Geometry: GRBL_11_no_M6)

(X range:    0.9099 ...   35.4844  mm)
(Y range:    1.1058 ...   47.3361  mm)

(Spindle Speed: 9000.0 RPM)
G21
G90
G17
G94


G01 F170.00

M5             
G00 Z15.0000
G00 X0.0000 Y0.0000                
T1
(MSG, Change to Tool Dia = 0.1996)
M0
G00 Z15.0000
        
M03 S9000.0
G4 P5.0
G01 F170.00
G00 X6.1026 Y1.5968
G01 F120.00
G01 Z-0.1000
G01 F170.00
G01 X6.1158 Y1.5959 F170.00
G01 X6.1290 Y1.5955 F170.00
G01 X6.7790 Y1.5955 F170.00
G01 X6.7922 Y1.5959 F170.00
G01 X6.8054 Y1.5968 F170.00
G01 X6.8185 Y1.5985 F170.00
G01 X6.8316 Y1.6007 F170.00
G01 X6.8445 Y1.6036 F170.00
G01 X6.8572 Y1.6071 F170.00
G01 X6.8698 Y1.6113 F170.00
G01 X6.8821 Y1.6161 F170.00
G01 X6.8942 Y1.6214 F170.00
G01 X6.9060 Y1.6274 F170.00
G01 X6.9175 Y1.6339 F170.00
G01 X6.9287 Y1.6410 F170.00
G01 X6.9395 Y1.6486 F170.00
G01 X6.9499 Y1.6567 F170.00
G01 X6.9600 Y1.6653 F170.00
G01 X6.9695 Y1.6745 F170.00
G01 X6.9787 Y1.6840 F170.00
G01 X6.9870 Y1.6938 F170.00
G01 X6.9770 Y1.6356 F170.00
G01 X6.9754 Y1.6225 F170.00
G01 X6.9744 Y1.6094 F170.00
G01 X6.9742 Y1.5896 F170.00
G01 X6.9748 Y1.5764 F170.00
G01 X6.9770 Y1.5567 F170.00
G01 X6.9792 Y1.5437 F170.00
G01 X6.9838 Y1.5245 F170.00
G01 X6.9876 Y1.5119 F170.00
G01 X7.0098 Y1.4444 F170.00
G01 X7.0168 Y1.4256 F170.00
G01 X7.0251 Y1.4074 F170.00
G01 X7.0348 Y1.3898 F170.00
G01 X7.0458 Y1.3730 F170.00
G01 X7.0580 Y1.3570 F170.00
G01 X7.0713 Y1.3420 F170.00
G01 X7.0858 Y1.3281 F170.00
G01 X7.0959 Y1.3194 F170.00
G01 X7.1563 Y1.2705 F170.00
G01 X7.1671 Y1.2626 F170.00
G01 X7.1840 Y1.2518 F170.00
G01 X7.1957 Y1.2453 F170.00
G01 X7.2077 Y1.2393 F170.00
G01 X7.2200 Y1.2340 F170.00
G01 X7.2389 Y1.2272 F170.00
G01 X7.2517 Y1.2235 F170.00
G01 X7.2713 Y1.2190 F170.00
G01 X7.2911 Y1.2161 F170.00
G01 X7.3617 Y1.2082 F170.00
G01 X7.3809 Y1.2068 F170.00
G01 X7.3937 Y1.2066 F170.00
G01 X7.4065 Y1.2070 F170.00
G01 X7.4257 Y1.2088 F170.00
G01 X7.4384 Y1.2107 F170.00
G01 X8.2299 Y1.3507 F170.00
G01 X8.2504 Y1.3550 F170.00
G01 X8.2669 Y1.3573 F170.00
G01 X8.3017 Y1.3634 F170.00
G01 X8.3173 Y1.3642 F170.00
G01 X8.3401 Y1.3664 F170.00
G01 X9.2535 Y1.4824 F170.00
G01 X9.2740 Y1.4857 F170.00
G01 X9.2912 Y1.4872 F170.00
G01 X9.3265 Y1.4917 F170.00
G01 X9.3407 Y1.4918 F170.00
G01 X9.3642 Y1.4929 F170.00
G01 X10.2467 Y1.5636 F170.00
G01 X10.2669 Y1.5659 F170.00
G01 X10.2850 Y1.5667 F170.00
G01 X10.3213 Y1.5696 F170.00
G01 X10.3449 Y1.5691 F170.00
G01 X10.3576 Y1.5693 F170.00
G01 X11.2151 Y1.6013 F170.00
G01 X11.2350 Y1.6026 F170.00
G01 X11.2541 Y1.6028 F170.00
G01 X11.2926 Y1.6041 F170.00
G01 X11.3128 Y1.6029 F170.00
G01 X11.3261 Y1.6026 F170.00
G01 X12.1645 Y1.6023 F170.00
G01 X12.1843 Y1.6028 F170.00
G01 X12.2044 Y1.6023 F170.00
G01 X12.2456 Y1.6023 F170.00
G01 X12.2616 Y1.6008 F170.00
G01 X12.2758 Y1.5999 F170.00
G01 X13.1034 Y1.5736 F170.00
G01 X13.1232 Y1.5736 F170.00
G01 X13.1432 Y1.5724 F170.00
G01 X13.1837 Y1.5711 F170.00
G01 X13.2005 Y1.5689 F170.00
G01 X13.2145 Y1.5677 F170.00
G01 X14.9620 Y1.4548 F170.00
G01 X14.9778 Y1.4542 F170.00
G01 X15.0484 Y1.4492 F170.00
G01 X15.0704 Y1.4466 F170.00
G01 X16.8769 Y1.2982 F170.00
G01 X18.8280 Y1.1644 F170.00
G01 X19.8418 Y1.1223 F170.00
G01 X20.8847 Y1.1059 F170.00
G01 X21.9767 Y1.1214 F170.00
G01 X23.1002 Y1.1750 F170.00
G01 X23.1232 Y1.1769 F170.00
G01 X23.1351 Y1.1783 F170.00
G01 X23.6503 Y1.2492 F170.00
G01 X24.1861 Y1.3463 F170.00
G01 X24.7165 Y1.4658 F170.00
G01 X25.2408 Y1.6070 F170.00
G01 X25.7631 Y1.7709 F170.00
G01 X26.2733 Y1.9540 F170.00
G01 X26.7664 Y2.1532 F170.00
G01 X26.7806 Y2.1592 F170.00
G01 X27.2698 Y2.3796 F170.00
G01 X27.7508 Y2.6187 F170.00
G01 X28.2169 Y2.8727 F170.00
G01 X28.2296 Y2.8800 F170.00
G01 X29.1370 Y3.4428 F170.00
G01 X29.1611 Y3.4590 F170.00
G01 X30.0136 Y4.0790 F170.00
G01 X30.0286 Y4.0905 F170.00
G01 X30.8481 Y4.7826 F170.00
G01 X30.8619 Y4.7953 F170.00
G01 X31.6208 Y5.5364 F170.00
G01 X31.6337 Y5.5501 F170.00
G01 X32.3350 Y6.3414 F170.00
G01 X32.3469 Y6.3562 F170.00
G01 X32.9862 Y7.1929 F170.00
G01 X32.9971 Y7.2086 F170.00
G01 X33.5718 Y8.0887 F170.00
G01 X33.5794 Y8.1014 F170.00
G01 X33.8339 Y8.5437 F170.00
G01 X33.8412 Y8.5570 F170.00
G01 X34.0852 Y9.0217 F170.00
G01 X34.3104 Y9.4943 F170.00
G01 X34.5181 Y9.9786 F170.00
G01 X34.7038 Y10.4645 F170.00
G01 X34.7093 Y10.4798 F170.00
G01 X34.8708 Y10.9614 F170.00
G01 X34.8758 Y10.9772 F170.00
G01 X35.0195 Y11.4745 F170.00
G01 X35.1419 Y11.9768 F170.00
G01 X35.2246 Y12.3956 F170.00
G01 X35.3055 Y12.9061 F170.00
G01 X35.3802 Y13.5255 F170.00
G01 X35.4395 Y14.2383 F170.00
G01 X35.4766 Y15.0484 F170.00
G01 X35.4844 Y15.9497 F170.00
G01 X35.4554 Y16.9559 F170.00
G01 X35.4251 Y17.4876 F170.00
G01 X35.3855 Y18.0093 F170.00
G01 X35.3844 Y18.0206 F170.00
G01 X35.3815 Y18.0420 F170.00
G01 X35.3786 Y18.0588 F170.00
G01 X35.2695 Y18.5904 F170.00
G01 X35.1434 Y19.1256 F170.00
G01 X35.0152 Y19.6033 F170.00
G01 X34.8813 Y20.0425 F170.00
G01 X34.8767 Y20.0565 F170.00
G01 X34.7401 Y20.4505 F170.00
G01 X34.5975 Y20.8133 F170.00
G01 X34.4528 Y21.1362 F170.00
G01 X34.4468 Y21.1486 F170.00
G01 X34.3114 Y21.4124 F170.00
G01 X34.2998 Y21.4334 F170.00
G01 X34.1631 Y21.6640 F170.00
G01 X34.1530 Y21.6794 F170.00
G01 X34.0244 Y21.8651 F170.00
G01 X34.0076 Y21.8869 F170.00
G01 X33.8923 Y22.0268 F170.00
G01 X33.8834 Y22.0371 F170.00
G01 X33.8655 Y22.0562 F170.00
G01 X33.7570 Y22.1634 F170.00
G01 X33.7328 Y22.1844 F170.00
G01 X33.6489 Y22.2492 F170.00
G01 X33.6380 Y22.2572 F170.00
G01 X33.6166 Y22.2714 F170.00
G01 X33.5992 Y22.2820 F170.00
G01 X33.5501 Y22.3091 F170.00
G01 X33.5191 Y22.3237 F170.00
G01 X33.5010 Y22.3312 F170.00
G01 X33.4823 Y22.3373 F170.00
G01 X33.4632 Y22.3421 F170.00
G01 X33.4438 Y22.3455 F170.00
G01 X33.4243 Y22.3474 F170.00
G01 X33.3534 Y22.3519 F170.00
G01 X33.3334 Y22.3524 F170.00
G01 X33.3200 Y22.3519 F170.00
G01 X33.3067 Y22.3507 F170.00
G01 X33.2934 Y22.3489 F170.00
G01 X33.2802 Y22.3465 F170.00
G01 X33.2608 Y22.3415 F170.00
G01 X33.2480 Y22.3375 F170.00
G01 X33.2355 Y22.3328 F170.00
G01 X33.2232 Y22.3274 F170.00
G01 X33.2054 Y22.3183 F170.00
G01 X33.1378 Y22.2806 F170.00
G01 X33.1269 Y22.2738 F170.00
G01 X33.1163 Y22.2665 F170.00
G01 X33.1012 Y22.2547 F170.00
G01 X33.0869 Y22.2418 F170.00
G01 X33.0705 Y22.2253 F170.00
G01 X33.0559 Y22.2092 F170.00
G01 X33.0340 Y22.1823 F170.00
G01 X32.9786 Y22.1039 F170.00
G01 X32.9637 Y22.0796 F170.00
G01 X32.9580 Y22.0692 F170.00
G01 X32.9053 Y21.9689 F170.00
G01 X32.8988 Y21.9558 F170.00
G01 X32.8874 Y21.9298 F170.00
G01 X32.8333 Y21.7923 F170.00
G01 X32.8253 Y21.7699 F170.00
G01 X32.8216 Y21.7582 F170.00
G01 X32.7712 Y21.5851 F170.00
G01 X32.7661 Y21.5655 F170.00
G01 X32.7206 Y21.3487 F170.00
G01 X32.7174 Y21.3314 F170.00
G01 X32.6818 Y21.0760 F170.00
G01 X32.6802 Y21.0606 F170.00
G01 X32.6590 Y20.7920 F170.00
G01 X32.6581 Y20.7782 F170.00
G01 X32.6502 Y20.4737 F170.00
G01 X32.6501 Y20.4546 F170.00
G01 X32.6574 Y20.1301 F170.00
G01 X32.6582 Y20.1125 F170.00
G01 X32.6818 Y19.7617 F170.00
G01 X32.6832 Y19.7454 F170.00
G01 X32.7253 Y19.3594 F170.00
G01 X32.7829 Y18.9701 F170.00
G01 X32.7867 Y18.9494 F170.00
G01 X32.7885 Y18.9331 F170.00
G01 X32.7936 Y18.8984 F170.00
G01 X32.7940 Y18.8819 F170.00
G01 X32.7954 Y18.8594 F170.00
G01 X32.8680 Y18.1155 F170.00
G01 X32.8706 Y18.0955 F170.00
G01 X32.8718 Y18.0770 F170.00
G01 X32.8753 Y18.0404 F170.00
G01 X32.8752 Y18.0176 F170.00
G01 X32.8757 Y18.0048 F170.00
G01 X32.9161 Y17.2818 F170.00
G01 X32.9179 Y17.2611 F170.00
G01 X32.9183 Y17.2441 F170.00
G01 X32.9202 Y17.2086 F170.00
G01 X32.9193 Y17.1940 F170.00
G01 X32.9187 Y17.1707 F170.00
G01 X32.9249 Y16.4691 F170.00
G01 X32.9257 Y16.4478 F170.00
G01 X32.9253 Y16.4250 F170.00
G01 X32.9255 Y16.3977 F170.00
G01 X32.9238 Y16.3839 F170.00
G01 X32.9217 Y16.3575 F170.00
G01 X32.8915 Y15.6763 F170.00
G01 X32.8912 Y15.6546 F170.00
G01 X32.8896 Y15.6322 F170.00
G01 X32.8885 Y15.6068 F170.00
G01 X32.8841 Y15.5817 F170.00
G01 X32.8822 Y15.5674 F170.00
G01 X32.8133 Y14.9023 F170.00
G01 X32.8118 Y14.8805 F170.00
G01 X32.8088 Y14.8584 F170.00
G01 X32.8064 Y14.8349 F170.00
G01 X32.8002 Y14.8102 F170.00
G01 X32.7975 Y14.7964 F170.00
G01 X32.6875 Y14.1464 F170.00
G01 X32.6845 Y14.1244 F170.00
G01 X32.6802 Y14.1029 F170.00
G01 X32.6765 Y14.0811 F170.00
G01 X32.6685 Y14.0569 F170.00
G01 X32.6649 Y14.0437 F170.00
G01 X32.5128 Y13.4136 F170.00
G01 X32.5084 Y13.3926 F170.00
G01 X32.5024 Y13.3707 F170.00
G01 X32.4962 Y13.3446 F170.00
G01 X32.4912 Y13.3317 F170.00
G01 X32.4826 Y13.3067 F170.00
G01 X32.4062 Y13.0517 F170.00
G01 X32.4011 Y13.0325 F170.00
G01 X32.3950 Y13.0142 F170.00
G01 X32.3839 Y12.9773 F170.00
G01 X32.3762 Y12.9587 F170.00
G01 X32.3716 Y12.9462 F170.00
G01 X32.2851 Y12.6927 F170.00
G01 X32.2793 Y12.6737 F170.00
G01 X32.2726 Y12.6558 F170.00
G01 X32.2602 Y12.6195 F170.00
G01 X32.2517 Y12.6009 F170.00
G01 X32.2467 Y12.5886 F170.00
G01 X32.1503 Y12.3376 F170.00
G01 X32.1437 Y12.3188 F170.00
G01 X32.1363 Y12.3013 F170.00
G01 X32.1226 Y12.2657 F170.00
G01 X32.1133 Y12.2471 F170.00
G01 X32.1078 Y12.2351 F170.00
G01 X32.0012 Y11.9865 F170.00
G01 X31.9939 Y11.9679 F170.00
G01 X31.9859 Y11.9506 F170.00
G01 X31.9709 Y11.9157 F170.00
G01 X31.9608 Y11.8974 F170.00
G01 X31.9548 Y11.8856 F170.00
G01 X31.8377 Y11.6391 F170.00
G01 X31.8297 Y11.6208 F170.00
G01 X31.8210 Y11.6039 F170.00
G01 X31.8046 Y11.5695 F170.00
G01 X31.7939 Y11.5517 F170.00
G01 X31.7875 Y11.5401 F170.00
G01 X31.6594 Y11.2954 F170.00
G01 X31.6507 Y11.2775 F170.00
G01 X31.6413 Y11.2609 F170.00
G01 X31.6236 Y11.2271 F170.00
G01 X31.6123 Y11.2098 F170.00
G01 X31.6054 Y11.1985 F170.00
G01 X31.4660 Y10.9554 F170.00
G01 X31.4567 Y10.9378 F170.00
G01 X31.4467 Y10.9215 F170.00
G01 X31.4276 Y10.8883 F170.00
G01 X31.4157 Y10.8716 F170.00
G01 X31.4084 Y10.8605 F170.00
G01 X31.2574 Y10.6189 F170.00
G01 X31.2474 Y10.6017 F170.00
G01 X31.2367 Y10.5857 F170.00
G01 X31.2162 Y10.5531 F170.00
G01 X31.2040 Y10.5371 F170.00
G01 X31.1962 Y10.5263 F170.00
G01 X31.0331 Y10.2858 F170.00
G01 X31.0227 Y10.2693 F170.00
G01 X31.0111 Y10.2534 F170.00
G01 X30.9893 Y10.2213 F170.00
G01 X30.9768 Y10.2062 F170.00
G01 X30.9686 Y10.1955 F170.00
G01 X30.7930 Y9.9561 F170.00
G01 X30.7819 Y9.9400 F170.00
G01 X30.7698 Y9.9244 F170.00
G01 X30.7465 Y9.8928 F170.00
G01 X30.7338 Y9.8786 F170.00
G01 X30.7252 Y9.8682 F170.00
G01 X30.5367 Y9.6296 F170.00
G01 X30.5250 Y9.6139 F170.00
G01 X30.5123 Y9.5987 F170.00
G01 X30.4877 Y9.5676 F170.00
G01 X30.4749 Y9.5543 F170.00
G01 X30.4658 Y9.5441 F170.00
G01 X30.2640 Y9.3062 F170.00
G01 X30.2517 Y9.2908 F170.00
G01 X30.2383 Y9.2759 F170.00
G01 X30.2124 Y9.2455 F170.00
G01 X30.1998 Y9.2331 F170.00
G01 X30.1902 Y9.2231 F170.00
G01 X29.9746 Y8.9858 F170.00
G01 X29.9617 Y8.9708 F170.00
G01 X29.9479 Y8.9563 F170.00
G01 X29.9206 Y8.9263 F170.00
G01 X29.9081 Y8.9149 F170.00
G01 X29.8981 Y8.9051 F170.00
G01 X29.6682 Y8.6682 F170.00
G01 X29.6548 Y8.6535 F170.00
G01 X29.6404 Y8.6395 F170.00
G01 X29.6118 Y8.6100 F170.00
G01 X29.5996 Y8.5995 F170.00
G01 X29.5891 Y8.5899 F170.00
G01 X29.3446 Y8.3532 F170.00
G01 X29.3306 Y8.3390 F170.00
G01 X29.3158 Y8.3253 F170.00
G01 X29.2858 Y8.2964 F170.00
G01 X29.2739 Y8.2868 F170.00
G01 X29.2630 Y8.2774 F170.00
G01 X29.0001 Y8.0378 F170.00
G01 X28.9855 Y8.0236 F170.00
G01 X28.9718 Y8.0120 F170.00
G01 X28.9448 Y7.9875 F170.00
G01 X28.9257 Y7.9733 F170.00
G01 X28.9158 Y7.9655 F170.00
G01 X28.2460 Y7.4058 F170.00
G01 X27.8413 Y7.0503 F170.00
G01 X27.8232 Y7.0339 F170.00
G01 X27.8095 Y7.0225 F170.00
G01 X27.7840 Y7.0076 F170.00
G01 X27.7724 Y7.0001 F170.00
G01 X27.5628 Y6.8561 F170.00
G01 X27.5444 Y6.8427 F170.00
G01 X27.5318 Y6.8326 F170.00
G01 X27.5019 Y6.8141 F170.00
G01 X27.4760 Y6.7965 F170.00
G01 X27.4645 Y6.7926 F170.00
G01 X27.4433 Y6.7843 F170.00
G01 X27.3980 Y6.7644 F170.00
G01 X27.3812 Y6.7562 F170.00
G01 X27.3616 Y6.7454 F170.00
G01 X27.3385 Y6.7373 F170.00
G01 X27.3117 Y6.7263 F170.00
G01 X27.2807 Y6.7216 F170.00
G01 X27.2063 Y6.7073 F170.00
G01 X27.1862 Y6.7029 F170.00
G01 X27.1626 Y6.6970 F170.00
G01 X27.1314 Y6.6995 F170.00
G01 X27.1155 Y6.7002 F170.00
G01 X27.1001 Y6.7021 F170.00
G01 X27.0763 Y6.7041 F170.00
G01 X27.0170 Y6.7169 F170.00
G01 X26.9799 Y6.7233 F170.00
G01 X26.9521 Y6.7381 F170.00
G01 X26.9237 Y6.7517 F170.00
G01 X26.9147 Y6.7594 F170.00
G01 X26.8967 Y6.7736 F170.00
G01 X26.8542 Y6.8044 F170.00
G01 X26.8253 Y6.8246 F170.00
G01 X26.7897 Y6.8688 F170.00
G01 X26.7790 Y6.8827 F170.00
G01 X26.7699 Y6.8988 F170.00
G01 X26.7499 Y6.9313 F170.00
G01 X26.7402 Y6.9458 F170.00
G01 X26.7332 Y6.9599 F170.00
G01 X26.7204 Y6.9833 F170.00
G01 X26.7112 Y7.0156 F170.00
G01 X26.6971 Y7.0618 F170.00
G01 X26.6926 Y7.0745 F170.00
G01 X26.6854 Y7.0921 F170.00
G01 X26.6783 Y7.1226 F170.00
G01 X26.6700 Y7.1516 F170.00
G01 X26.6694 Y7.1733 F170.00
G01 X26.6683 Y7.1908 F170.00
G01 X26.6443 Y7.4623 F170.00
G01 X26.6417 Y7.4874 F170.00
G01 X26.6407 Y7.5024 F170.00
G01 X26.6440 Y7.5322 F170.00
G01 X26.6448 Y7.5456 F170.00
G01 X26.6563 Y7.8730 F170.00
G01 X26.6564 Y7.8940 F170.00
G01 X26.6576 Y7.9104 F170.00
G01 X26.6589 Y7.9454 F170.00
G01 X26.6614 Y7.9616 F170.00
G01 X26.6641 Y7.9841 F170.00
G01 X26.6978 Y8.3812 F170.00
G01 X26.6986 Y8.3937 F170.00
G01 X26.7037 Y8.4501 F170.00
G01 X26.7078 Y8.4885 F170.00
G01 X26.8232 Y9.6808 F170.00
G01 X26.8784 Y10.4217 F170.00
G01 X26.9140 Y11.2303 F170.00
G01 X26.9180 Y12.0840 F170.00
G01 X26.8792 Y12.9816 F170.00
G01 X26.8783 Y12.9963 F170.00
G01 X26.7856 Y13.9244 F170.00
G01 X26.7822 Y13.9496 F170.00
G01 X26.6276 Y14.8843 F170.00
G01 X26.6247 Y14.8994 F170.00
G01 X26.6178 Y14.9283 F170.00
G01 X26.1640 Y16.5189 F170.00
G01 X25.7248 Y17.9542 F170.00
G01 X25.5003 Y18.6252 F170.00
G01 X25.2720 Y19.2580 F170.00
G01 X25.0314 Y19.8712 F170.00
G01 X24.7729 Y20.4736 F170.00
G01 X24.4913 Y21.0724 F170.00
G01 X24.1883 Y21.6607 F170.00
G01 X24.1816 Y21.6732 F170.00
G01 X23.8484 Y22.2662 F170.00
G01 X23.4783 Y22.8743 F170.00
G01 X23.0688 Y23.4996 F170.00
G01 X22.6155 Y24.1484 F170.00
G01 X22.1137 Y24.8269 F170.00
G01 X21.5630 Y25.5360 F170.00
G01 X21.3769 Y25.7640 F170.00
G01 X21.3671 Y25.7756 F170.00
G01 X21.1693 Y25.9991 F170.00
G01 X20.7325 Y26.4467 F170.00
G01 X20.7224 Y26.4567 F170.00
G01 X20.2311 Y26.9078 F170.00
G01 X19.7065 Y27.3492 F170.00
G01 X19.1512 Y27.7840 F170.00
G01 X18.5771 Y28.2079 F170.00
G01 X18.0007 Y28.6134 F170.00
G01 X17.4269 Y29.0021 F170.00
G01 X15.3830 Y30.3221 F170.00
G01 X15.3718 Y30.3290 F170.00
G01 X15.3084 Y30.3702 F170.00
G01 X15.2928 Y30.3814 F170.00
G01 X14.6193 Y30.8286 F170.00
G01 X14.6015 Y30.8396 F170.00
G01 X14.5879 Y30.8494 F170.00
G01 X14.5585 Y30.8689 F170.00
G01 X14.5467 Y30.8790 F170.00
G01 X14.5287 Y30.8932 F170.00
G01 X14.3274 Y31.0414 F170.00
G01 X14.3087 Y31.0543 F170.00
G01 X14.2961 Y31.0644 F170.00
G01 X14.2780 Y31.0777 F170.00
G01 X14.2639 Y31.0925 F170.00
G01 X14.2544 Y31.1015 F170.00
G01 X14.1549 Y31.1879 F170.00
G01 X14.1399 Y31.2000 F170.00
G01 X14.1231 Y31.2121 F170.00
G01 X14.1029 Y31.2322 F170.00
G01 X14.0809 Y31.2521 F170.00
G01 X14.0680 Y31.2714 F170.00
G01 X14.0590 Y31.2840 F170.00
G01 X13.9812 Y31.3878 F170.00
G01 X13.9660 Y31.4070 F170.00
G01 X13.9586 Y31.4178 F170.00
G01 X13.9502 Y31.4292 F170.00
G01 X13.9393 Y31.4512 F170.00
G01 X13.9336 Y31.4615 F170.00
G01 X13.8887 Y31.5358 F170.00
G01 X13.8759 Y31.5562 F170.00
G01 X13.8664 Y31.5726 F170.00
G01 X13.8537 Y31.6066 F170.00
G01 X13.8038 Y31.7164 F170.00
G01 X13.7955 Y31.7528 F170.00
G01 X13.7906 Y31.7692 F170.00
G01 X13.7854 Y31.7838 F170.00
