(G-CODE GENERATED BY FLATCAM v8.994 - www.flatcam.org - Version Date: 2020/11/7)

(Name: tuxpin-B_Cu.gbr_iso_combined_cnc)
(Type: G-code from Geometry)
(Units: MM)

(Created on Sunday, 23 January 2022 at 19:19)

(This preprocessor is used with a motion controller loaded with GRBL firmware.)
(It is configured to be compatible with almost any version of GRBL firmware.)

(TOOL DIAMETER: 0.1996 mm)
(Feedrate_XY: 170.0 mm/min)
(Feedrate_Z: 120.0 mm/min)
(Feedrate rapids 1500.0 mm/min)

(Z_Cut: -0.1 mm)
(DepthPerCut: 0.8 mm <=>1 passes)
(Z_Move: 2.0 mm)
(Z Start: None mm)
(Z End: 15.0 mm)
(X,Y End: 0.0000, 0.0000 mm)
(Steps per circle: 64)
(Steps per circle: 64)
(Preprocessor Geometry: GRBL_11_no_M6)

(X range:    0.9099 ...   35.4844  mm)
(Y range:    0.6639 ...   46.8942  mm)

(Spindle Speed: 9000.0 RPM)
G21
G90
G17
G94


G01 F170.00

M5             
G00 Z15.0000
G00 X0.0000 Y0.0000                
T1
(MSG, Change to Tool Dia = 0.1996)
M0
G00 Z15.0000
        
M03 S9000.0
G4 P5.0
G01 F170.00
G00 X0.9139 Y22.3434
G01 F120.00
G01 Z-0.1000
G01 F170.00
G01 X0.9099 Y22.0041 F170.00
G01 X0.9115 Y21.6778 F170.00
G01 X0.9188 Y21.3733 F170.00
G01 X0.9308 Y21.1091 F170.00
G01 X0.9321 Y21.0913 F170.00
G01 X1.1922 Y18.8177 F170.00
G01 X1.1941 Y18.8044 F170.00
G01 X1.2001 Y18.7729 F170.00
G01 X1.2033 Y18.7599 F170.00
G01 X1.3479 Y18.2225 F170.00
G01 X1.3552 Y18.1992 F170.00
G01 X1.3664 Y18.1541 F170.00
G01 X1.3718 Y18.1339 F170.00
G01 X1.3757 Y18.1164 F170.00
G01 X1.5104 Y17.5703 F170.00
G01 X1.5177 Y17.5452 F170.00
G01 X1.5274 Y17.5014 F170.00
G01 X1.5323 Y17.4815 F170.00
G01 X1.5360 Y17.4627 F170.00
G01 X1.7978 Y16.2799 F170.00
G01 X1.8038 Y16.2574 F170.00
G01 X1.8132 Y16.2107 F170.00
G01 X1.8178 Y16.1898 F170.00
G01 X1.8207 Y16.1732 F170.00
G01 X2.3254 Y13.6653 F170.00
G01 X2.5978 Y12.4098 F170.00
G01 X2.9144 Y11.1504 F170.00
G01 X3.0979 Y10.5142 F170.00
G01 X3.2992 Y9.8838 F170.00
G01 X3.5228 Y9.2521 F170.00
G01 X3.7564 Y8.6569 F170.00
G01 X3.7636 Y8.6403 F170.00
G01 X3.7763 Y8.6141 F170.00
G01 X3.9762 Y8.2557 F170.00
G01 X4.1896 Y7.8995 F170.00
G01 X4.4123 Y7.5547 F170.00
G01 X4.6225 Y7.2534 F170.00
G01 X4.8389 Y6.9661 F170.00
G01 X5.0576 Y6.6976 F170.00
G01 X5.2825 Y6.4420 F170.00
G01 X5.5053 Y6.2069 F170.00
G01 X5.7365 Y5.9795 F170.00
G01 X5.9741 Y5.7603 F170.00
G01 X6.2189 Y5.5471 F170.00
G01 X6.4738 Y5.3361 F170.00
G01 X7.0054 Y4.9197 F170.00
G01 X7.5419 Y4.5170 F170.00
G01 X7.5566 Y4.5066 F170.00
G01 X7.5768 Y4.4940 F170.00
G01 X7.5885 Y4.4835 F170.00
G01 X7.5991 Y4.4747 F170.00
G01 X7.6122 Y4.4619 F170.00
G01 X7.6358 Y4.4403 F170.00
G01 X7.6573 Y4.4033 F170.00
G01 X7.9610 Y3.9176 F170.00
G01 X8.2790 Y3.4322 F170.00
G01 X8.6054 Y2.9583 F170.00
G01 X8.9385 Y2.5000 F170.00
G01 X9.2858 Y2.0488 F170.00
G01 X9.6385 Y1.6182 F170.00
G01 X9.9577 Y1.2530 F170.00
G01 X9.9709 Y1.2390 F170.00
G01 X9.9802 Y1.2302 F170.00
G01 X9.9899 Y1.2219 F170.00
G01 X10.0001 Y1.2140 F170.00
G01 X10.0159 Y1.2031 F170.00
G01 X10.0815 Y1.1615 F170.00
G01 X10.0932 Y1.1549 F170.00
G01 X10.1051 Y1.1488 F170.00
G01 X10.1173 Y1.1434 F170.00
G01 X10.1298 Y1.1386 F170.00
G01 X10.1425 Y1.1344 F170.00
G01 X10.1554 Y1.1309 F170.00
G01 X10.1685 Y1.1280 F170.00
G01 X10.1817 Y1.1257 F170.00
G01 X10.1950 Y1.1241 F170.00
G01 X10.2083 Y1.1232 F170.00
G01 X10.2217 Y1.1229 F170.00
G01 X10.2927 Y1.1232 F170.00
G01 X10.3061 Y1.1236 F170.00
G01 X10.3194 Y1.1247 F170.00
G01 X10.3327 Y1.1264 F170.00
G01 X10.3524 Y1.1302 F170.00
G01 X10.3654 Y1.1336 F170.00
G01 X10.3781 Y1.1376 F170.00
G01 X10.3969 Y1.1447 F170.00
G01 X10.4091 Y1.1503 F170.00
G01 X10.4210 Y1.1564 F170.00
G01 X10.4382 Y1.1667 F170.00
G01 X10.4977 Y1.2054 F170.00
G01 X10.5085 Y1.2128 F170.00
G01 X10.5240 Y1.2248 F170.00
G01 X10.5386 Y1.2380 F170.00
G01 X10.5477 Y1.2473 F170.00
G01 X10.5564 Y1.2571 F170.00
G01 X10.5686 Y1.2725 F170.00
G01 X10.5796 Y1.2887 F170.00
G01 X10.5893 Y1.3058 F170.00
G01 X10.5952 Y1.3175 F170.00
G01 X10.6048 Y1.3393 F170.00
G01 X10.6144 Y1.3557 F170.00
G01 X10.6233 Y1.3734 F170.00
G01 X10.6307 Y1.3918 F170.00
G01 X10.6368 Y1.4107 F170.00
G01 X10.6518 Y1.4685 F170.00
G01 X10.6568 Y1.4906 F170.00
G01 X10.6614 Y1.5061 F170.00
G01 X10.6645 Y1.5180 F170.00
G01 X10.6690 Y1.5395 F170.00
G01 X10.6712 Y1.5520 F170.00
G01 X10.6802 Y1.5809 F170.00
G01 X10.6874 Y1.6088 F170.00
G01 X10.6973 Y1.6367 F170.00
G01 X10.7062 Y1.6665 F170.00
G01 X10.7169 Y1.6925 F170.00
G01 X10.7246 Y1.7138 F170.00
G01 X10.7278 Y1.7239 F170.00
G01 X10.7403 Y1.7506 F170.00
G01 X10.7525 Y1.7811 F170.00
G01 X10.7670 Y1.8082 F170.00
G01 X10.7807 Y1.8380 F170.00
G01 X10.7940 Y1.8595 F170.00
G01 X10.8052 Y1.8790 F170.00
G01 X10.8144 Y1.8926 F170.00
G01 X10.8224 Y1.9055 F170.00
G01 X10.8410 Y1.9380 F170.00
G01 X10.8605 Y1.9587 F170.00
G01 X10.8749 Y1.9756 F170.00
G01 X10.8870 Y1.9857 F170.00
G01 X10.9079 Y1.9994 F170.00
G01 X10.9281 Y2.0115 F170.00
G01 X10.9594 Y2.0250 F170.00
G01 X10.9815 Y2.0357 F170.00
G01 X10.9902 Y2.0382 F170.00
G01 X11.0146 Y2.0410 F170.00
G01 X11.0314 Y2.0436 F170.00
G01 X11.0497 Y2.0470 F170.00
G01 X11.0588 Y2.0471 F170.00
G01 X11.0771 Y2.0440 F170.00
G01 X11.0940 Y2.0418 F170.00
G01 X11.1184 Y2.0396 F170.00
G01 X11.1367 Y2.0347 F170.00
G01 X11.1544 Y2.0281 F170.00
G01 X11.2257 Y1.9910 F170.00
G01 X11.2511 Y1.9666 F170.00
G01 X11.2846 Y1.9353 F170.00
G01 X11.3134 Y1.9116 F170.00
G01 X11.3793 Y1.8302 F170.00
G01 X11.3872 Y1.8209 F170.00
G01 X11.4015 Y1.8052 F170.00
G01 X11.4233 Y1.7757 F170.00
G01 X11.4344 Y1.7617 F170.00
G01 X11.4460 Y1.7449 F170.00
G01 X11.5502 Y1.6035 F170.00
G01 X11.7945 Y1.2668 F170.00
G01 X11.9384 Y1.0782 F170.00
G01 X12.0826 Y0.9018 F170.00
G01 X12.0916 Y0.8913 F170.00
G01 X12.1848 Y0.7888 F170.00
G01 X12.1937 Y0.7796 F170.00
G01 X12.2077 Y0.7665 F170.00
G01 X12.2227 Y0.7544 F170.00
G01 X12.2385 Y0.7435 F170.00
G01 X12.3046 Y0.7032 F170.00
G01 X12.3222 Y0.6934 F170.00
G01 X12.3404 Y0.6849 F170.00
G01 X12.3592 Y0.6779 F170.00
G01 X12.3784 Y0.6722 F170.00
G01 X12.3980 Y0.6680 F170.00
G01 X12.4113 Y0.6660 F170.00
G01 X12.4246 Y0.6647 F170.00
G01 X12.4446 Y0.6639 F170.00
G01 X12.5223 Y0.6658 F170.00
G01 X12.5357 Y0.6664 F170.00
G01 X12.5490 Y0.6678 F170.00
G01 X12.5688 Y0.6710 F170.00
G01 X12.5819 Y0.6740 F170.00
G01 X12.5947 Y0.6776 F170.00
G01 X12.6137 Y0.6842 F170.00
G01 X12.6260 Y0.6894 F170.00
G01 X12.6381 Y0.6951 F170.00
G01 X12.6499 Y0.7015 F170.00
G01 X12.6613 Y0.7085 F170.00
G01 X12.7256 Y0.7520 F170.00
G01 X12.7365 Y0.7598 F170.00
G01 X12.7469 Y0.7680 F170.00
G01 X12.7618 Y0.7814 F170.00
G01 X12.7712 Y0.7909 F170.00
G01 X12.7843 Y0.8060 F170.00
G01 X12.7924 Y0.8166 F170.00
G01 X12.7999 Y0.8276 F170.00
G01 X12.8070 Y0.8389 F170.00
G01 X12.8164 Y0.8565 F170.00
G01 X12.8462 Y0.9211 F170.00
G01 X12.8512 Y0.9328 F170.00
G01 X12.8577 Y0.9506 F170.00
G01 X12.8629 Y0.9689 F170.00
G01 X12.8668 Y0.9875 F170.00
G01 X13.4186 Y4.1663 F170.00
G01 X13.4219 Y4.1898 F170.00
G01 X13.4235 Y4.2070 F170.00
G01 X13.4343 Y4.2366 F170.00
G01 X13.4455 Y4.2719 F170.00
G01 X13.4602 Y4.3068 F170.00
G01 X13.4741 Y4.3444 F170.00
G01 X13.4921 Y4.3829 F170.00
G01 X13.5046 Y4.4131 F170.00
G01 X13.5242 Y4.4501 F170.00
G01 X13.5374 Y4.4782 F170.00
G01 X13.5585 Y4.5137 F170.00
G01 X13.5720 Y4.5394 F170.00
G01 X13.5950 Y4.5738 F170.00
G01 X13.6088 Y4.5971 F170.00
G01 X13.6291 Y4.6240 F170.00
G01 X13.6400 Y4.6396 F170.00
G01 X13.6475 Y4.6513 F170.00
G01 X13.6678 Y4.6753 F170.00
G01 X13.6800 Y4.6909 F170.00
G01 X13.6881 Y4.7021 F170.00
G01 X13.7085 Y4.7238 F170.00
G01 X13.7232 Y4.7406 F170.00
G01 X13.7303 Y4.7495 F170.00
G01 X13.7517 Y4.7701 F170.00
G01 X13.7739 Y4.7937 F170.00
G01 X13.7965 Y4.8134 F170.00
G01 X13.8186 Y4.8347 F170.00
G01 X13.8425 Y4.8538 F170.00
G01 X13.8637 Y4.8725 F170.00
G01 X13.8894 Y4.8914 F170.00
G01 X13.9090 Y4.9074 F170.00
G01 X13.9359 Y4.9257 F170.00
G01 X13.9595 Y4.9436 F170.00
G01 X13.9907 Y4.9630 F170.00
G01 X14.0058 Y4.9730 F170.00
G01 X14.0180 Y4.9798 F170.00
G01 X14.0289 Y4.9866 F170.00
G01 X14.0554 Y5.0050 F170.00
G01 X14.0863 Y5.0222 F170.00
G01 X14.1007 Y5.0309 F170.00
G01 X14.1193 Y5.0404 F170.00
G01 X14.4797 Y5.2398 F170.00
G01 X14.4922 Y5.2470 F170.00
G01 X14.5949 Y5.3091 F170.00
G01 X14.6434 Y5.3402 F170.00
G01 X14.6924 Y5.3731 F170.00
G01 X14.7521 Y5.4153 F170.00
G01 X14.8107 Y5.4590 F170.00
G01 X14.8623 Y5.4995 F170.00
G01 X14.9071 Y5.5366 F170.00
G01 X14.9282 Y5.5560 F170.00
G01 X15.1284 Y5.7537 F170.00
G01 X15.3120 Y5.9393 F170.00
G01 X15.4658 Y6.1009 F170.00
G01 X15.5990 Y6.2492 F170.00
G01 X15.7022 Y6.3740 F170.00
G01 X15.7109 Y6.3850 F170.00
G01 X15.8010 Y6.5071 F170.00
G01 X15.8381 Y6.5628 F170.00
G01 X15.8736 Y6.6203 F170.00
G01 X15.9043 Y6.6739 F170.00
G01 X15.9339 Y6.7299 F170.00
G01 X15.9892 Y6.8479 F170.00
G01 X15.9980 Y6.8682 F170.00
G01 X16.0456 Y6.9871 F170.00
G01 X16.0513 Y7.0023 F170.00
G01 X16.1040 Y7.1515 F170.00
G01 X16.1605 Y7.3257 F170.00
G01 X16.3071 Y7.8012 F170.00
G01 X16.3900 Y8.0677 F170.00
G01 X16.4652 Y8.3015 F170.00
G01 X16.4694 Y8.3161 F170.00
G01 X16.4756 Y8.3428 F170.00
G01 X16.4803 Y8.3538 F170.00
G01 X16.4928 Y8.3857 F170.00
G01 X16.5130 Y8.4280 F170.00
G01 X16.5208 Y8.4469 F170.00
G01 X16.5416 Y8.4873 F170.00
G01 X16.5530 Y8.5119 F170.00
G01 X16.5756 Y8.5533 F170.00
G01 X16.5906 Y8.5830 F170.00
G01 X16.6150 Y8.6251 F170.00
G01 X16.6334 Y8.6593 F170.00
G01 X16.6593 Y8.7015 F170.00
G01 X16.6806 Y8.7386 F170.00
G01 X16.7086 Y8.7816 F170.00
G01 X16.7345 Y8.8238 F170.00
G01 X16.7580 Y8.8574 F170.00
G01 X16.7779 Y8.8868 F170.00
G01 X16.7927 Y8.9099 F170.00
G01 X16.8181 Y8.9439 F170.00
G01 X16.8295 Y8.9601 F170.00
G01 X16.8375 Y8.9705 F170.00
G01 X16.8552 Y8.9961 F170.00
G01 X16.8800 Y9.0267 F170.00
G01 X16.8919 Y9.0424 F170.00
G01 X16.9040 Y9.0571 F170.00
G01 X16.9217 Y9.0809 F170.00
G01 X16.9418 Y9.1036 F170.00
G01 X16.9581 Y9.1230 F170.00
G01 X16.9770 Y9.1443 F170.00
G01 X16.9918 Y9.1627 F170.00
G01 X17.0107 Y9.1818 F170.00
G01 X17.0271 Y9.1993 F170.00
G01 X17.0354 Y9.2076 F170.00
G01 X17.0568 Y9.2304 F170.00
G01 X17.0659 Y9.2408 F170.00
G01 X17.0833 Y9.2562 F170.00
G01 X17.1002 Y9.2721 F170.00
G01 X17.1269 Y9.2959 F170.00
G01 X17.1414 Y9.3104 F170.00
G01 X17.1594 Y9.3247 F170.00
G01 X17.1826 Y9.3450 F170.00
G01 X17.2042 Y9.3608 F170.00
G01 X17.2255 Y9.3780 F170.00
G01 X17.2436 Y9.3898 F170.00
G01 X17.2701 Y9.4092 F170.00
G01 X17.2956 Y9.4240 F170.00
G01 X17.3168 Y9.4382 F170.00
G01 X17.3439 Y9.4518 F170.00
G01 X17.3658 Y9.4648 F170.00
G01 X17.3861 Y9.4730 F170.00
G01 X17.4028 Y9.4802 F170.00
G01 X17.4231 Y9.4899 F170.00
G01 X17.4352 Y9.4962 F170.00
G01 X17.4669 Y9.5146 F170.00
G01 X17.4785 Y9.5218 F170.00
G01 X17.4897 Y9.5295 F170.00
G01 X17.5014 Y9.5385 F170.00
G01 X17.5173 Y9.5513 F170.00
G01 X17.5569 Y9.5853 F170.00
G01 X17.6161 Y9.6403 F170.00
G01 X17.6753 Y9.6998 F170.00
G01 X17.7393 Y9.7693 F170.00
G01 X17.7966 Y9.8362 F170.00
G01 X17.8481 Y9.9010 F170.00
G01 X17.8587 Y9.9150 F170.00
G01 X17.9022 Y9.9752 F170.00
G01 X17.9135 Y9.9917 F170.00
G01 X17.9565 Y10.0582 F170.00
G01 X17.9799 Y10.0979 F170.00
G01 X17.9887 Y10.1142 F170.00
G01 X17.9969 Y10.1316 F170.00
G01 X18.0038 Y10.1495 F170.00
G01 X18.0094 Y10.1679 F170.00
G01 X18.0125 Y10.1804 F170.00
G01 X18.0287 Y10.2562 F170.00
G01 X18.0309 Y10.2690 F170.00
G01 X18.0329 Y10.2885 F170.00
G01 X18.0335 Y10.3015 F170.00
G01 X18.0334 Y10.3146 F170.00
G01 X18.0321 Y10.3341 F170.00
G01 X18.0305 Y10.3470 F170.00
G01 X18.0269 Y10.3663 F170.00
G01 X18.0237 Y10.3789 F170.00
G01 X18.0204 Y10.3899 F170.00
G01 X18.0182 Y10.4018 F170.00
G01 X18.0151 Y10.4146 F170.00
G01 X18.0114 Y10.4273 F170.00
G01 X18.0047 Y10.4460 F170.00
G01 X17.9827 Y10.5009 F170.00
G01 X17.9731 Y10.5231 F170.00
G01 X17.9663 Y10.5419 F170.00
G01 X17.9070 Y10.6898 F170.00
G01 X17.9015 Y10.7026 F170.00
G01 X17.8942 Y10.7180 F170.00
G01 X17.8803 Y10.7560 F170.00
G01 X17.8730 Y10.7747 F170.00
G01 X17.8668 Y10.7934 F170.00
G01 X17.8168 Y10.9311 F170.00
G01 X17.8063 Y10.9565 F170.00
G01 X17.7925 Y10.9979 F170.00
G01 X17.7856 Y11.0171 F170.00
G01 X17.7797 Y11.0362 F170.00
G01 X17.7370 Y11.1641 F170.00
G01 X17.7283 Y11.1870 F170.00
G01 X17.7145 Y11.2313 F170.00
G01 X17.7080 Y11.2510 F170.00
G01 X17.7030 Y11.2684 F170.00
G01 X17.4514 Y12.0790 F170.00
G01 X17.3823 Y12.2789 F170.00
G01 X17.3143 Y12.4550 F170.00
G01 X17.2389 Y12.6268 F170.00
G01 X17.2293 Y12.6471 F170.00
G01 X17.1515 Y12.7997 F170.00
G01 X17.1391 Y12.8222 F170.00
G01 X17.0467 Y12.9772 F170.00
G01 X17.0366 Y12.9926 F170.00
G01 X16.9368 Y13.1362 F170.00
G01 X16.9192 Y13.1596 F170.00
G01 X16.7971 Y13.3099 F170.00
G01 X16.7843 Y13.3244 F170.00
G01 X16.6744 Y13.4410 F170.00
G01 X16.6610 Y13.4543 F170.00
G01 X16.6445 Y13.4689 F170.00
G01 X16.6324 Y13.4841 F170.00
G01 X16.6225 Y13.4957 F170.00
G01 X16.6088 Y13.5141 F170.00
G01 X16.5401 Y13.6007 F170.00
G01 X16.5268 Y13.6159 F170.00
G01 X16.4606 Y13.6875 F170.00
G01 X16.4419 Y13.7063 F170.00
G01 X16.3640 Y13.7800 F170.00
G01 X16.3529 Y13.7900 F170.00
G01 X16.2630 Y13.8658 F170.00
G01 X16.2415 Y13.8827 F170.00
G01 X16.0264 Y14.0397 F170.00
G01 X16.0119 Y14.0498 F170.00
G01 X15.7608 Y14.2084 F170.00
G01 X15.7489 Y14.2153 F170.00
G01 X14.7199 Y14.7912 F170.00
G01 X14.7073 Y14.7978 F170.00
G01 X14.6841 Y14.8086 F170.00
G01 X14.6632 Y14.8221 F170.00
G01 X14.6441 Y14.8336 F170.00
G01 X14.6261 Y14.8459 F170.00
G01 X14.4599 Y14.9527 F170.00
G01 X14.4435 Y14.9624 F170.00
G01 X14.4243 Y14.9724 F170.00
G01 X14.4083 Y14.9846 F170.00
G01 X14.3957 Y14.9936 F170.00
G01 X14.3779 Y15.0081 F170.00
G01 X14.2312 Y15.1209 F170.00
G01 X14.2165 Y15.1314 F170.00
G01 X14.1965 Y15.1443 F170.00
G01 X14.1850 Y15.1549 F170.00
G01 X14.1744 Y15.1639 F170.00
G01 X14.1574 Y15.1807 F170.00
G01 X14.1195 Y15.2160 F170.00
G01 X14.1097 Y15.2242 F170.00
G01 X14.0928 Y15.2374 F170.00
G01 X14.0789 Y15.2526 F170.00
G01 X14.0679 Y15.2638 F170.00
G01 X14.0531 Y15.2811 F170.00
G01 X14.0198 Y15.3177 F170.00
G01 X13.9945 Y15.3417 F170.00
G01 X13.9792 Y15.3616 F170.00
G01 X13.9652 Y15.3817 F170.00
G01 X13.9321 Y15.4265 F170.00
G01 X13.9084 Y15.4546 F170.00
G01 X13.9008 Y15.4675 F170.00
G01 X13.8575 Y15.5453 F170.00
G01 X13.8372 Y15.5768 F170.00
G01 X13.7993 Y15.6741 F170.00
G01 X13.7901 Y15.6960 F170.00
G01 X13.7844 Y15.7082 F170.00
G01 X13.7776 Y15.7406 F170.00
G01 X13.7664 Y15.7886 F170.00
G01 X13.7587 Y15.8273 F170.00
G01 X13.7531 Y15.8479 F170.00
G01 X13.7519 Y15.8802 F170.00
G01 X13.7491 Y15.9220 F170.00
G01 X13.7493 Y15.9357 F170.00
G01 X13.7480 Y15.9716 F170.00
G01 X13.7459 Y15.9924 F170.00
G01 X13.7501 Y16.0246 F170.00
G01 X13.7544 Y16.0656 F170.00
G01 X13.7587 Y16.0886 F170.00
G01 X13.7608 Y16.1040 F170.00
G01 X13.7631 Y16.1383 F170.00
G01 X13.7726 Y16.1704 F170.00
G01 X13.7854 Y16.2162 F170.00
G01 X13.7906 Y16.2308 F170.00
G01 X13.7955 Y16.2472 F170.00
G01 X13.8038 Y16.2836 F170.00
G01 X13.8537 Y16.3934 F170.00
G01 X13.8664 Y16.4274 F170.00
G01 X13.8759 Y16.4438 F170.00
G01 X13.8887 Y16.4642 F170.00
G01 X13.9336 Y16.5385 F170.00
G01 X13.9393 Y16.5488 F170.00
G01 X13.9502 Y16.5708 F170.00
G01 X13.9586 Y16.5822 F170.00
G01 X13.9660 Y16.5930 F170.00
G01 X13.9812 Y16.6122 F170.00
G01 X14.0590 Y16.7160 F170.00
G01 X14.0680 Y16.7286 F170.00
G01 X14.0809 Y16.7479 F170.00
G01 X14.1029 Y16.7678 F170.00
G01 X14.1231 Y16.7879 F170.00
G01 X14.1399 Y16.8000 F170.00
G01 X14.1500 Y16.8079 F170.00
G01 X14.2496 Y16.8941 F170.00
G01 X14.2639 Y16.9075 F170.00
G01 X14.2780 Y16.9223 F170.00
G01 X14.2961 Y16.9356 F170.00
G01 X14.3087 Y16.9457 F170.00
G01 X14.3274 Y16.9586 F170.00
G01 X14.5287 Y17.1068 F170.00
G01 X14.5467 Y17.1210 F170.00
G01 X14.5585 Y17.1311 F170.00
G01 X14.5879 Y17.1506 F170.00
G01 X14.6015 Y17.1604 F170.00
G01 X14.6193 Y17.1714 F170.00
G01 X15.2928 Y17.6186 F170.00
G01 X15.3084 Y17.6298 F170.00
G01 X15.3718 Y17.6710 F170.00
G01 X15.3830 Y17.6779 F170.00
G01 X16.7206 Y18.5418 F170.00
G01 X16.7312 Y18.5490 F170.00
G01 X16.7465 Y18.5607 F170.00
G01 X16.7608 Y18.5735 F170.00
G01 X16.7699 Y18.5826 F170.00
G01 X16.7785 Y18.5921 F170.00
G01 X16.8249 Y18.6459 F170.00
G01 X16.8334 Y18.6563 F170.00
G01 X16.8413 Y18.6670 F170.00
G01 X16.8522 Y18.6838 F170.00
G01 X16.8619 Y18.7015 F170.00
G01 X16.8702 Y18.7197 F170.00
G01 X16.8749 Y18.7322 F170.00
