(G-CODE GENERATED BY FLATCAM v8.994 - www.flatcam.org - Version Date: 2020/11/7)

(Name: tuxpin-B_Cu.gbr_iso_combined_cnc)
(Type: G-code from Geometry)
(Units: MM)

(Created on Sunday, 23 January 2022 at 17:28)

(This preprocessor is used with a motion controller loaded with GRBL firmware.)
(It is configured to be compatible with almost any version of GRBL firmware.)

(TOOL DIAMETER: 0.1996 mm)
(Feedrate_XY: 170.0 mm/min)
(Feedrate_Z: 120.0 mm/min)
(Feedrate rapids 1500.0 mm/min)

(Z_Cut: -0.1 mm)
(DepthPerCut: 0.8 mm <=>1 passes)
(Z_Move: 2.0 mm)
(Z Start: None mm)
(Z End: 15.0 mm)
(X,Y End: 0.0000, 0.0000 mm)
(Steps per circle: 64)
(Steps per circle: 64)
(Preprocessor Geometry: GRBL_11_no_M6)

(X range:   -5.4844 ...   29.0901  mm)
(Y range:    1.1058 ...   47.3361  mm)

(Spindle Speed: 9000.0 RPM)
G21
G90
G17
G94


G01 F170.00

M5             
G00 Z15.0000
G00 X0.0000 Y0.0000                
T1
(MSG, Change to Tool Dia = 0.1996)
M0
G00 Z15.0000
        
M03 S9000.0
G4 P5.0
G01 F170.00
G00 X5.6446 Y6.6872
G01 F120.00
G01 Z-0.1000
G01 F170.00
G01 X5.6143 Y6.7147 F170.00
G01 X5.6221 Y6.6983 F170.00
G01 X5.6294 Y6.6796 F170.00
G01 X5.6335 Y6.6668 F170.00
G01 X5.6455 Y6.6259 F170.00
G01 X5.6455 Y6.6864 F170.00
G01 X5.6446 Y6.6872 F170.00
G00 Z2.0000
G00 X5.7661 Y6.8067
G01 F120.00
G01 Z-0.1000
G01 F170.00
G01 X5.8152 Y6.7703 F170.00
G01 X5.8152 Y5.7460 F170.00
G01 X5.8157 Y5.7365 F170.00
G01 X5.8170 Y5.7271 F170.00
G01 X5.8192 Y5.7179 F170.00
G01 X5.8392 Y5.6498 F170.00
G01 X5.8425 Y5.6404 F170.00
G01 X5.8479 Y5.6292 F170.00
G01 X5.8531 Y5.6208 F170.00
G01 X5.8592 Y5.6130 F170.00
G01 X5.8660 Y5.6058 F170.00
G01 X5.9252 Y5.5544 F170.00
G01 X5.9332 Y5.5484 F170.00
G01 X5.9418 Y5.5433 F170.00
G01 X5.9531 Y5.5381 F170.00
G01 X5.9650 Y5.5344 F170.00
G01 X6.0198 Y5.5225 F170.00
G01 X6.0292 Y5.5209 F170.00
G01 X6.0410 Y5.5202 F170.00
G01 X15.3164 Y5.5202 F170.00
G01 X15.3282 Y5.5212 F170.00
G01 X15.3398 Y5.5236 F170.00
G01 X15.4102 Y5.5442 F170.00
G01 X15.4219 Y5.5485 F170.00
G01 X15.4286 Y5.5517 F170.00
G01 X15.4350 Y5.5554 F170.00
G01 X15.4451 Y5.5626 F170.00
G01 X15.4507 Y5.5675 F170.00
G01 X15.4559 Y5.5728 F170.00
G01 X15.5056 Y5.6302 F170.00
G01 X15.5102 Y5.6362 F170.00
G01 X15.5143 Y5.6424 F170.00
G01 X15.5179 Y5.6490 F170.00
G01 X15.5210 Y5.6558 F170.00
G01 X15.5235 Y5.6628 F170.00
G01 X15.5256 Y5.6700 F170.00
G01 X15.5380 Y5.7271 F170.00
G01 X15.5393 Y5.7365 F170.00
G01 X15.5398 Y5.7460 F170.00
G01 X15.5398 Y18.8728 F170.00
G01 X15.5971 Y18.9249 F170.00
G01 X15.6812 Y19.0175 F170.00
G01 X15.6858 Y19.0233 F170.00
G01 X15.7574 Y19.1199 F170.00
G01 X15.7614 Y19.1260 F170.00
G01 X15.8243 Y19.2313 F170.00
G01 X15.8779 Y19.3443 F170.00
G01 X15.8806 Y19.3512 F170.00
G01 X15.9218 Y19.4667 F170.00
G01 X15.9528 Y19.5904 F170.00
G01 X15.9715 Y19.7166 F170.00
G01 X15.9778 Y19.8440 F170.00
G01 X15.9715 Y19.9714 F170.00
G01 X15.9528 Y20.0976 F170.00
G01 X15.9218 Y20.2213 F170.00
G01 X15.8806 Y20.3368 F170.00
G01 X15.8779 Y20.3437 F170.00
G01 X15.8243 Y20.4567 F170.00
G01 X15.7614 Y20.5620 F170.00
G01 X15.7574 Y20.5681 F170.00
G01 X15.6858 Y20.6647 F170.00
G01 X15.6812 Y20.6705 F170.00
G01 X15.5971 Y20.7631 F170.00
G01 X15.5398 Y20.8152 F170.00
G01 X15.5397 Y22.7707 F170.00
G01 X15.5384 Y22.7825 F170.00
G01 X15.5364 Y22.7918 F170.00
G01 X15.5158 Y22.8622 F170.00
G01 X15.5115 Y22.8739 F170.00
G01 X15.5083 Y22.8806 F170.00
G01 X15.5046 Y22.8870 F170.00
G01 X15.4974 Y22.8971 F170.00
G01 X15.4925 Y22.9027 F170.00
G01 X15.4872 Y22.9079 F170.00
G01 X15.4298 Y22.9576 F170.00
G01 X15.4238 Y22.9622 F170.00
G01 X15.4176 Y22.9663 F170.00
G01 X15.4110 Y22.9699 F170.00
G01 X15.4042 Y22.9730 F170.00
G01 X15.3972 Y22.9755 F170.00
G01 X15.3900 Y22.9776 F170.00
G01 X15.3329 Y22.9900 F170.00
G01 X15.3235 Y22.9913 F170.00
G01 X15.3140 Y22.9918 F170.00
G01 X11.4810 Y22.9918 F170.00
G01 X11.4173 Y22.9963 F170.00
G01 X11.3894 Y23.0002 F170.00
G01 X11.3269 Y23.0135 F170.00
G01 X9.8878 Y23.4260 F170.00
G01 X9.8758 Y23.4290 F170.00
G01 X9.8018 Y23.4446 F170.00
G01 X9.7755 Y23.4483 F170.00
G01 X9.6209 Y23.4572 F170.00
G01 X9.5900 Y23.4562 F170.00
G01 X9.4495 Y23.4416 F170.00
G01 X9.4416 Y23.4405 F170.00
G01 X9.4138 Y23.4350 F170.00
G01 X9.2775 Y23.3980 F170.00
G01 X9.2508 Y23.3888 F170.00
G01 X9.2433 Y23.3858 F170.00
G01 X9.1147 Y23.3275 F170.00
G01 X9.0898 Y23.3140 F170.00
G01 X9.0829 Y23.3098 F170.00
G01 X8.9653 Y23.2317 F170.00
G01 X8.9588 Y23.2270 F170.00
G01 X8.9368 Y23.2092 F170.00
G01 X8.8333 Y23.1132 F170.00
G01 X8.8139 Y23.0925 F170.00
G01 X8.8087 Y23.0864 F170.00
G01 X8.7203 Y22.9729 F170.00
G01 X8.7033 Y22.9470 F170.00
G01 X8.6327 Y22.8180 F170.00
G01 X8.6204 Y22.7916 F170.00
G01 X8.5935 Y22.7182 F170.00
G01 X8.5896 Y22.7064 F170.00
G01 X8.5626 Y22.6124 F170.00
G01 X8.5588 Y22.5970 F170.00
G01 X8.5436 Y22.5254 F170.00
G01 X8.5395 Y22.4966 F170.00
G01 X8.5307 Y22.3475 F170.00
G01 X8.5312 Y22.3165 F170.00
G01 X8.5461 Y22.1707 F170.00
G01 X8.5510 Y22.1428 F170.00
G01 X8.5528 Y22.1350 F170.00
G01 X8.5897 Y21.9987 F170.00
G01 X8.5990 Y21.9719 F170.00
G01 X8.6020 Y21.9645 F170.00
G01 X8.6603 Y21.8359 F170.00
G01 X8.6737 Y21.8110 F170.00
G01 X8.6779 Y21.8041 F170.00
G01 X8.7561 Y21.6865 F170.00
G01 X8.7733 Y21.6641 F170.00
G01 X8.7786 Y21.6580 F170.00
G01 X8.8566 Y21.5738 F170.00
G01 X8.9115 Y21.5014 F170.00
G01 X8.9240 Y21.4811 F170.00
G01 X8.9282 Y21.4754 F170.00
G01 X8.9328 Y21.4700 F170.00
G01 X8.9396 Y21.4633 F170.00
G01 X8.9959 Y21.4124 F170.00
G01 X9.0059 Y21.4051 F170.00
G01 X9.0123 Y21.4014 F170.00
G01 X9.0190 Y21.3982 F170.00
G01 X9.0437 Y21.3886 F170.00
G01 X9.0518 Y21.3859 F170.00
G01 X9.2037 Y21.3424 F170.00
G01 X9.2170 Y21.3366 F170.00
G01 X9.3094 Y21.3036 F170.00
G01 X9.3301 Y21.2973 F170.00
G01 X10.7109 Y20.9013 F170.00
G01 X10.7219 Y20.8973 F170.00
G01 X10.9218 Y20.7879 F170.00
G01 X11.1013 Y20.6481 F170.00
G01 X11.2559 Y20.4813 F170.00
G01 X11.3818 Y20.2919 F170.00
G01 X11.4758 Y20.0848 F170.00
G01 X11.5352 Y19.8652 F170.00
G01 X11.5587 Y19.6390 F170.00
G01 X11.5455 Y19.4114 F170.00
G01 X11.5181 Y19.2819 F170.00
G01 X11.4817 Y19.1550 F170.00
G01 X11.4363 Y19.0306 F170.00
G01 X11.3269 Y18.8307 F170.00
G01 X11.1871 Y18.6513 F170.00
G01 X11.0203 Y18.4966 F170.00
G01 X10.8309 Y18.3707 F170.00
G01 X10.6238 Y18.2768 F170.00
G01 X10.4042 Y18.2173 F170.00
G01 X10.1780 Y18.1938 F170.00
G01 X9.9504 Y18.2070 F170.00
G01 X9.8209 Y18.2344 F170.00
G01 X9.6459 Y18.2846 F170.00
G01 X9.6327 Y18.2904 F170.00
G01 X9.5403 Y18.3234 F170.00
G01 X9.5195 Y18.3297 F170.00
G01 X7.6579 Y18.8635 F170.00
G01 X7.6438 Y18.8681 F170.00
G01 X7.5518 Y18.8945 F170.00
G01 X7.5363 Y18.8983 F170.00
G01 X7.4648 Y18.9135 F170.00
G01 X7.4360 Y18.9176 F170.00
G01 X7.2815 Y18.9265 F170.00
G01 X7.2505 Y18.9255 F170.00
G01 X7.1048 Y18.9102 F170.00
G01 X7.0743 Y18.9043 F170.00
G01 X6.9381 Y18.8674 F170.00
G01 X6.9304 Y18.8650 F170.00
G01 X6.9063 Y18.8562 F170.00
G01 X6.7819 Y18.7998 F170.00
G01 X6.7681 Y18.7932 F170.00
G01 X6.7435 Y18.7792 F170.00
G01 X6.6259 Y18.7010 F170.00
G01 X6.6035 Y18.6837 F170.00
G01 X6.5974 Y18.6785 F170.00
G01 X6.4938 Y18.5825 F170.00
G01 X6.4745 Y18.5619 F170.00
G01 X6.4693 Y18.5557 F170.00
G01 X6.3825 Y18.4444 F170.00
G01 X6.3667 Y18.4209 F170.00
G01 X6.3625 Y18.4140 F170.00
G01 X6.2932 Y18.2873 F170.00
G01 X6.2898 Y18.2806 F170.00
G01 X6.2800 Y18.2586 F170.00
G01 X6.2529 Y18.1842 F170.00
G01 X6.2492 Y18.1724 F170.00
G01 X6.2232 Y18.0818 F170.00
G01 X6.2193 Y18.0663 F170.00
G01 X6.2041 Y17.9947 F170.00
G01 X6.2000 Y17.9660 F170.00
G01 X6.1913 Y17.8168 F170.00
G01 X6.1916 Y17.7885 F170.00
G01 X6.1921 Y17.7805 F170.00
G01 X6.2067 Y17.6400 F170.00
G01 X6.2115 Y17.6121 F170.00
G01 X6.2133 Y17.6043 F170.00
G01 X6.2502 Y17.4680 F170.00
G01 X6.2595 Y17.4413 F170.00
G01 X6.2625 Y17.4338 F170.00
G01 X6.3208 Y17.3052 F170.00
G01 X6.3343 Y17.2803 F170.00
G01 X6.3384 Y17.2734 F170.00
G01 X6.4156 Y17.1574 F170.00
G01 X6.4214 Y17.1493 F170.00
G01 X6.4391 Y17.1273 F170.00
G01 X6.5351 Y17.0238 F170.00
G01 X6.5408 Y17.0181 F170.00
G01 X6.5619 Y16.9992 F170.00
G01 X6.6733 Y16.9124 F170.00
G01 X6.6990 Y16.8952 F170.00
G01 X6.8307 Y16.8230 F170.00
G01 X6.8395 Y16.8190 F170.00
G01 X6.8784 Y16.8045 F170.00
G01 X6.8909 Y16.8011 F170.00
G01 X6.9699 Y16.7729 F170.00
G01 X6.9907 Y16.7666 F170.00
G01 X8.9132 Y16.2153 F170.00
G01 X9.0000 Y16.1942 F170.00
G01 X9.0168 Y16.1915 F170.00
G01 X9.1034 Y16.1599 F170.00
G01 X9.3033 Y16.0505 F170.00
G01 X9.4828 Y15.9107 F170.00
G01 X9.6341 Y15.7476 F170.00
G01 X9.6374 Y15.7439 F170.00
G01 X9.7633 Y15.5545 F170.00
G01 X9.8572 Y15.3474 F170.00
G01 X9.9167 Y15.1278 F170.00
G01 X9.9402 Y14.9016 F170.00
G01 X9.9270 Y14.6740 F170.00
G01 X9.8996 Y14.5445 F170.00
G01 X9.8632 Y14.4176 F170.00
G01 X9.8178 Y14.2932 F170.00
G01 X9.7084 Y14.0933 F170.00
G01 X9.5686 Y13.9139 F170.00
G01 X9.4018 Y13.7592 F170.00
G01 X9.2124 Y13.6333 F170.00
G01 X9.0053 Y13.5394 F170.00
G01 X8.7857 Y13.4799 F170.00
G01 X8.5595 Y13.4564 F170.00
G01 X8.3319 Y13.4696 F170.00
G01 X8.3205 Y13.4720 F170.00
G01 X6.4571 Y14.0063 F170.00
G01 X6.3724 Y14.0269 F170.00
G01 X6.3342 Y14.0328 F170.00
G01 X6.3163 Y14.0375 F170.00
G01 X6.2844 Y14.0429 F170.00
G01 X6.2757 Y14.0438 F170.00
G01 X6.1490 Y14.0511 F170.00
G01 X6.1409 Y14.0513 F170.00
G01 X6.1126 Y14.0503 F170.00
G01 X6.0106 Y14.0394 F170.00
G01 X6.0037 Y14.0380 F170.00
G01 X5.9948 Y14.0353 F170.00
G01 X5.9390 Y14.0267 F170.00
G01 X5.8367 Y14.0010 F170.00
G01 X5.7397 Y13.9664 F170.00
G01 X5.7306 Y13.9627 F170.00
G01 X5.6375 Y13.9185 F170.00
G01 X5.5491 Y13.8656 F170.00
G01 X5.5409 Y13.8602 F170.00
G01 X5.4583 Y13.7987 F170.00
G01 X5.3818 Y13.7296 F170.00
G01 X5.3749 Y13.7227 F170.00
G01 X5.3058 Y13.6463 F170.00
G01 X5.2443 Y13.5636 F170.00
G01 X5.2389 Y13.5555 F170.00
G01 X5.1884 Y13.4713 F170.00
G01 X5.1849 Y13.4648 F170.00
G01 X5.1399 Y13.3694 F170.00
G01 X5.1035 Y13.2678 F170.00
G01 X5.0773 Y13.1631 F170.00
G01 X5.0621 Y13.0612 F170.00
G01 X5.0611 Y13.0515 F170.00
G01 X5.0563 Y12.9535 F170.00
G01 X5.0563 Y12.9437 F170.00
G01 X5.0615 Y12.8408 F170.00
G01 X5.0773 Y12.7340 F170.00
G01 X5.1035 Y12.6293 F170.00
G01 X5.1381 Y12.5323 F170.00
G01 X5.1419 Y12.5232 F170.00
G01 X5.1838 Y12.4345 F170.00
G01 X5.1884 Y12.4259 F170.00
G01 X5.2415 Y12.3376 F170.00
G01 X5.3058 Y12.2509 F170.00
G01 X5.3783 Y12.1709 F170.00
G01 X5.4583 Y12.0984 F170.00
G01 X5.5449 Y12.0341 F170.00
G01 X5.6375 Y11.9786 F170.00
G01 X5.7351 Y11.9325 F170.00
G01 X5.8344 Y11.8969 F170.00
G01 X5.9689 Y11.8581 F170.00
G01 X5.9788 Y11.8547 F170.00
G01 X6.3743 Y11.7413 F170.00
G01 X6.3946 Y11.7360 F170.00
G01 X7.7753 Y11.3401 F170.00
G01 X7.8621 Y11.3190 F170.00
G01 X7.9003 Y11.3131 F170.00
G01 X8.5621 Y11.1234 F170.00
G01 X8.6865 Y11.0780 F170.00
G01 X8.8864 Y10.9685 F170.00
G01 X9.0658 Y10.8288 F170.00
G01 X9.2082 Y10.6752 F170.00
G01 X9.2205 Y10.6620 F170.00
G01 X9.3464 Y10.4726 F170.00
G01 X9.4403 Y10.2654 F170.00
G01 X9.4998 Y10.0459 F170.00
G01 X9.5233 Y9.8197 F170.00
G01 X9.5101 Y9.5921 F170.00
G01 X9.4827 Y9.4626 F170.00
G01 X9.4463 Y9.3357 F170.00
G01 X9.4009 Y9.2113 F170.00
G01 X9.2915 Y9.0113 F170.00
G01 X9.1517 Y8.8319 F170.00
G01 X8.9849 Y8.6772 F170.00
G01 X8.7955 Y8.5513 F170.00
G01 X8.5884 Y8.4574 F170.00
G01 X8.3688 Y8.3980 F170.00
G01 X8.1426 Y8.3745 F170.00
G01 X7.9150 Y8.3877 F170.00
G01 X7.9035 Y8.3901 F170.00
G01 X6.7631 Y8.7171 F170.00
G01 X6.6764 Y8.7382 F170.00
G01 X6.6382 Y8.7441 F170.00
G01 X6.1032 Y8.8975 F170.00
G01 X6.0940 Y8.8997 F170.00
G01 X6.0869 Y8.9007 F170.00
G01 X6.0775 Y8.9013 F170.00
G01 X6.0016 Y8.9008 F170.00
G01 X5.9893 Y8.8997 F170.00
G01 X5.9772 Y8.8970 F170.00
G01 X5.9655 Y8.8929 F170.00
G01 X5.9588 Y8.8897 F170.00
G01 X5.9523 Y8.8860 F170.00
G01 X5.8908 Y8.8459 F170.00
G01 X5.8827 Y8.8401 F170.00
G01 X5.8753 Y8.8335 F170.00
G01 X5.8686 Y8.8263 F170.00
G01 X5.8627 Y8.8183 F170.00
G01 X5.8575 Y8.8099 F170.00
G01 X5.8542 Y8.8032 F170.00
G01 X5.8241 Y8.7361 F170.00
G01 X5.8215 Y8.7290 F170.00
G01 X5.8188 Y8.7193 F170.00
G01 X5.8168 Y8.7069 F170.00
G01 X5.8152 Y8.6827 F170.00
G01 X5.8152 Y8.5495 F170.00
G01 X5.7623 Y8.5101 F170.00
G01 X5.6841 Y8.4393 F170.00
G01 X5.6789 Y8.4340 F170.00
G01 X5.6114 Y8.3595 F170.00
G01 X5.6068 Y8.3537 F170.00
G01 X5.5455 Y8.2709 F170.00
G01 X5.4925 Y8.1826 F170.00
G01 X5.4878 Y8.1740 F170.00
G01 X5.4439 Y8.0808 F170.00
G01 X5.4075 Y7.9792 F170.00
G01 X5.3813 Y7.8745 F170.00
G01 X5.3661 Y7.7726 F170.00
G01 X5.3651 Y7.7628 F170.00
G01 X5.3603 Y7.6648 F170.00
G01 X5.3603 Y7.6550 F170.00
G01 X5.3655 Y7.5521 F170.00
G01 X5.3805 Y7.4502 F170.00
G01 X5.3824 Y7.4406 F170.00
G01 X5.4075 Y7.3406 F170.00
G01 X5.4439 Y7.2390 F170.00
G01 X5.4878 Y7.1458 F170.00
G01 X5.4925 Y7.1372 F170.00
G01 X5.5455 Y7.0489 F170.00
G01 X5.6068 Y6.9661 F170.00
G01 X5.6130 Y6.9585 F170.00
G01 X5.6823 Y6.8822 F170.00
G01 X5.7586 Y6.8129 F170.00
G01 X5.7661 Y6.8067 F170.00
G00 Z2.0000
G00 X5.6446 Y8.6326
G01 F120.00
G01 Z-0.1000
G01 F170.00
G01 X5.6455 Y8.6334 F170.00
G01 X5.6458 Y8.6927 F170.00
G01 X5.6479 Y8.7227 F170.00
G01 X5.6495 Y8.7362 F170.00
G01 X5.6518 Y8.7497 F170.00
G01 X5.6548 Y8.7630 F170.00
G01 X5.6584 Y8.7761 F170.00
G01 X5.6627 Y8.7890 F170.00
G01 X5.6676 Y8.8017 F170.00
G01 X5.6994 Y8.8727 F170.00
G01 X5.7052 Y8.8848 F170.00
G01 X5.7116 Y8.8965 F170.00
G01 X5.7222 Y8.9136 F170.00
G01 X5.7300 Y8.9244 F170.00
G01 X5.7383 Y8.9349 F170.00
G01 X5.7472 Y8.9450 F170.00
G01 X5.7613 Y8.9592 F170.00
G01 X5.7765 Y8.9724 F170.00
G01 X5.7871 Y8.9805 F170.00
G01 X5.7981 Y8.9881 F170.00
G01 X5.8576 Y9.0268 F170.00
G01 X5.8690 Y9.0339 F170.00
G01 X5.8807 Y9.0403 F170.00
G01 X5.8989 Y9.0489 F170.00
G01 X5.9113 Y9.0538 F170.00
G01 X5.9240 Y9.0582 F170.00
G01 X5.9433 Y9.0635 F170.00
G01 X5.9564 Y9.0662 F170.00
G01 X5.9763 Y9.0690 F170.00
G01 X5.9896 Y9.0701 F170.00
G01 X6.0048 Y9.0706 F170.00
G01 X5.8193 Y9.1239 F170.00
G01 X5.8068 Y9.1280 F170.00
G01 X5.7159 Y9.1605 F170.00
G01 X5.3617 Y9.1605 F170.00
G01 X5.4334 Y9.1308 F170.00
G01 X5.4517 Y9.1224 F170.00
G01 X5.4634 Y9.1160 F170.00
G01 X5.4805 Y9.1055 F170.00
G01 X5.4967 Y9.0936 F170.00
G01 X5.5070 Y9.0851 F170.00
G01 X5.5216 Y9.0713 F170.00
G01 X5.5308 Y9.0616 F170.00
G01 X5.5395 Y9.0514 F170.00
G01 X5.5476 Y9.0408 F170.00
G01 X5.5957 Y8.9714 F170.00
G01 X5.6027 Y8.9600 F170.00
G01 X5.6092 Y8.9483 F170.00
G01 X5.6178 Y8.9302 F170.00
G01 X5.6251 Y8.9115 F170.00
G01 X5.6291 Y8.8987 F170.00
G01 X5.6325 Y8.8858 F170.00
G01 X5.6364 Y8.8661 F170.00
G01 X5.6389 Y8.8462 F170.00
G01 X5.6396 Y8.8328 F170.00
G01 X5.6422 Y8.7553 F170.00
G01 X5.6417 Y8.7357 F170.00
G01 X5.6397 Y8.7162 F170.00
G01 X5.6364 Y8.6969 F170.00
G01 X5.6316 Y8.6778 F170.00
G01 X5.6255 Y8.6592 F170.00
G01 X5.6180 Y8.6410 F170.00
G01 X5.6123 Y8.6293 F170.00
G01 X5.5844 Y8.5780 F170.00
G01 X5.6446 Y8.6326 F170.00
G00 Z2.0000
G00 X3.5486 Y9.1618
G01 F120.00
G01 Z-0.1000
G01 F170.00
G01 X3.5592 Y9.1610 F170.00
G01 X3.5105 Y9.1466 F170.00
G01 X3.4978 Y9.1422 F170.00
G01 X3.4854 Y9.1371 F170.00
G01 X3.4673 Y9.1285 F170.00
G01 X3.4556 Y9.1220 F170.00
G01 X3.4443 Y9.1149 F170.00
G01 X3.4333 Y9.1072 F170.00
G01 X3.4227 Y9.0990 F170.00
G01 X3.4126 Y9.0903 F170.00
G01 X3.3981 Y9.0763 F170.00
G01 X3.3891 Y9.0665 F170.00
G01 X3.3426 Y9.0128 F170.00
G01 X3.3341 Y9.0024 F170.00
G01 X3.3261 Y8.9917 F170.00
G01 X3.3186 Y8.9805 F170.00
G01 X3.3085 Y8.9631 F170.00
G01 X3.2997 Y8.9450 F170.00
G01 X3.2946 Y8.9326 F170.00
G01 X3.2901 Y8.9199 F170.00
G01 X3.2846 Y8.9006 F170.00
G01 X3.2817 Y8.8875 F170.00
G01 X3.2697 Y8.8164 F170.00
G01 X3.2679 Y8.8037 F170.00
G01 X3.2667 Y8.7909 F170.00
G01 X3.2660 Y8.7716 F170.00
G01 X3.2663 Y8.7587 F170.00
G01 X3.2673 Y8.7459 F170.00
G01 X3.2922 Y8.4885 F170.00
G01 X3.2963 Y8.4501 F170.00
G01 X3.3014 Y8.3937 F170.00
G01 X3.3022 Y8.3812 F170.00
G01 X3.3359 Y7.9841 F170.00
G01 X3.3386 Y7.9616 F170.00
G01 X3.3411 Y7.9454 F170.00
G01 X3.3424 Y7.9104 F170.00
G01 X3.3436 Y7.8940 F170.00
G01 X3.3437 Y7.8730 F170.00
G01 X3.3552 Y7.5456 F170.00
G01 X3.3560 Y7.5322 F170.00
G01 X3.3593 Y7.5024 F170.00
G01 X3.3583 Y7.4874 F170.00
G01 X3.3557 Y7.4623 F170.00
G01 X3.3317 Y7.1908 F170.00
G01 X3.3306 Y7.1733 F170.00
G01 X3.3300 Y7.1516 F170.00
G01 X3.3217 Y7.1226 F170.00
