(G-CODE GENERATED BY FLATCAM v8.994 - www.flatcam.org - Version Date: 2020/11/7)

(Name: tuxpin-Edge_Cuts.gbr_iso_combined_cnc)
(Type: G-code from Geometry)
(Units: MM)

(Created on Sunday, 23 January 2022 at 16:57)

(This preprocessor is used with a motion controller loaded with GRBL firmware.)
(It is configured to be compatible with almost any version of GRBL firmware.)

(TOOL DIAMETER: 1.0 mm)
(Feedrate_XY: 170.0 mm/min)
(Feedrate_Z: 120.0 mm/min)
(Feedrate rapids 1500.0 mm/min)

(Z_Cut: -2.0 mm)
(DepthPerCut: 0.8 mm <=>3 passes)
(Z_Move: 2.0 mm)
(Z Start: None mm)
(Z End: 15.0 mm)
(X,Y End: 0.0000, 0.0000 mm)
(Steps per circle: 64)
(Steps per circle: 64)
(Preprocessor Geometry: GRBL_11_no_M6)

(X range:   -6.3351 ...   29.9407  mm)
(Y range:    0.2552 ...   48.4040  mm)

(Spindle Speed: 11000.0 RPM)
G21
G90
G17
G94


G01 F170.00

M5             
G00 Z15.0000
G00 X0.0000 Y0.0000                
T1
(MSG, Change to Tool Dia = 1.0000)
M0
G00 Z15.0000
        
M03 S11000.0
G4 P5.0
G01 F170.00
G00 X17.9257 Y5.9098
G01 F120.00
G01 Z-0.8000
G01 F170.00
G01 X17.7487 Y5.9330 F170.00
G01 X17.7750 Y6.1644 F170.00
G01 X17.8075 Y6.3728 F170.00
G01 X17.8243 Y6.4570 F170.00
G01 X17.8422 Y6.5322 F170.00
G01 X17.8543 Y6.5740 F170.00
G01 X17.8874 Y6.5885 F170.00
G01 X17.9871 Y6.6279 F170.00
G01 X18.0992 Y6.6682 F170.00
G01 X18.2209 Y6.7083 F170.00
G01 X18.3497 Y6.7471 F170.00
G01 X18.4833 Y6.7837 F170.00
G01 X18.6195 Y6.8172 F170.00
G01 X18.7558 Y6.8469 F170.00
G01 X18.8899 Y6.8721 F170.00
G01 X19.0193 Y6.8920 F170.00
G01 X19.1166 Y6.9032 F170.00
G01 X19.1268 Y6.7939 F170.00
G01 X19.1362 Y6.6492 F170.00
G01 X19.1419 Y6.4977 F170.00
G01 X19.1432 Y6.3436 F170.00
G01 X19.1397 Y6.1909 F170.00
G01 X19.1309 Y6.0439 F170.00
G01 X19.1169 Y5.9074 F170.00
G01 X19.1097 Y5.8615 F170.00
G01 X18.9502 Y5.8539 F170.00
G01 X18.7606 Y5.8531 F170.00
G01 X18.5547 Y5.8591 F170.00
G01 X18.3414 Y5.8711 F170.00
G01 X18.1290 Y5.8884 F170.00
G01 X17.9257 Y5.9098 F170.00
G00 X17.9257 Y5.9098
G01 F120.00
G01 Z-1.6000
G01 F170.00
G01 X17.7487 Y5.9330 F170.00
G01 X17.7750 Y6.1644 F170.00
G01 X17.8075 Y6.3728 F170.00
G01 X17.8243 Y6.4570 F170.00
G01 X17.8422 Y6.5322 F170.00
G01 X17.8543 Y6.5740 F170.00
G01 X17.8874 Y6.5885 F170.00
G01 X17.9871 Y6.6279 F170.00
G01 X18.0992 Y6.6682 F170.00
G01 X18.2209 Y6.7083 F170.00
G01 X18.3497 Y6.7471 F170.00
G01 X18.4833 Y6.7837 F170.00
G01 X18.6195 Y6.8172 F170.00
G01 X18.7558 Y6.8469 F170.00
G01 X18.8899 Y6.8721 F170.00
G01 X19.0193 Y6.8920 F170.00
G01 X19.1166 Y6.9032 F170.00
G01 X19.1268 Y6.7939 F170.00
G01 X19.1362 Y6.6492 F170.00
G01 X19.1419 Y6.4977 F170.00
G01 X19.1432 Y6.3436 F170.00
G01 X19.1397 Y6.1909 F170.00
G01 X19.1309 Y6.0439 F170.00
G01 X19.1169 Y5.9074 F170.00
G01 X19.1097 Y5.8615 F170.00
G01 X18.9502 Y5.8539 F170.00
G01 X18.7606 Y5.8531 F170.00
G01 X18.5547 Y5.8591 F170.00
G01 X18.3414 Y5.8711 F170.00
G01 X18.1290 Y5.8884 F170.00
G01 X17.9257 Y5.9098 F170.00
G00 X17.9257 Y5.9098
G01 F120.00
G01 Z-2.0000
G01 F170.00
G01 X17.7487 Y5.9330 F170.00
G01 X17.7750 Y6.1644 F170.00
G01 X17.8075 Y6.3728 F170.00
G01 X17.8243 Y6.4570 F170.00
G01 X17.8422 Y6.5322 F170.00
G01 X17.8543 Y6.5740 F170.00
G01 X17.8874 Y6.5885 F170.00
G01 X17.9871 Y6.6279 F170.00
G01 X18.0992 Y6.6682 F170.00
G01 X18.2209 Y6.7083 F170.00
G01 X18.3497 Y6.7471 F170.00
G01 X18.4833 Y6.7837 F170.00
G01 X18.6195 Y6.8172 F170.00
G01 X18.7558 Y6.8469 F170.00
G01 X18.8899 Y6.8721 F170.00
G01 X19.0193 Y6.8920 F170.00
G01 X19.1166 Y6.9032 F170.00
G01 X19.1268 Y6.7939 F170.00
G01 X19.1362 Y6.6492 F170.00
G01 X19.1419 Y6.4977 F170.00
G01 X19.1432 Y6.3436 F170.00
G01 X19.1397 Y6.1909 F170.00
G01 X19.1309 Y6.0439 F170.00
G01 X19.1169 Y5.9074 F170.00
G01 X19.1097 Y5.8615 F170.00
G01 X18.9502 Y5.8539 F170.00
G01 X18.7606 Y5.8531 F170.00
G01 X18.5547 Y5.8591 F170.00
G01 X18.3414 Y5.8711 F170.00
G01 X18.1290 Y5.8884 F170.00
G01 X17.9257 Y5.9098 F170.00
G00 Z2.0000
G00 X22.6573 Y25.2983
G01 F120.00
G01 Z-0.8000
G01 F170.00
G01 X22.6374 Y25.3174 F170.00
G01 X22.6204 Y25.3371 F170.00
G01 X22.6051 Y25.3584 F170.00
G01 X22.5906 Y25.3833 F170.00
G01 X22.5810 Y25.4041 F170.00
G01 X22.5353 Y25.5509 F170.00
G01 X22.5012 Y25.6960 F170.00
G01 X22.4821 Y25.8224 F170.00
G01 X22.4754 Y25.9300 F170.00
G01 X22.4788 Y26.0192 F170.00
G01 X22.4895 Y26.0909 F170.00
G01 X22.5048 Y26.1468 F170.00
G01 X22.5226 Y26.1894 F170.00
G01 X22.5417 Y26.2218 F170.00
G01 X22.5618 Y26.2472 F170.00
G01 X22.5837 Y26.2682 F170.00
G01 X22.6089 Y26.2865 F170.00
G01 X22.6387 Y26.3027 F170.00
G01 X22.6740 Y26.3166 F170.00
G01 X22.7151 Y26.3275 F170.00
G01 X22.7616 Y26.3346 F170.00
G01 X22.8128 Y26.3371 F170.00
G01 X22.8673 Y26.3344 F170.00
G01 X22.9240 Y26.3263 F170.00
G01 X22.9814 Y26.3127 F170.00
G01 X23.0381 Y26.2937 F170.00
G01 X23.0928 Y26.2696 F170.00
G01 X23.1443 Y26.2410 F170.00
G01 X23.1917 Y26.2086 F170.00
G01 X23.2340 Y26.1729 F170.00
G01 X23.2710 Y26.1346 F170.00
G01 X23.3025 Y26.0940 F170.00
G01 X23.3285 Y26.0514 F170.00
G01 X23.3493 Y26.0062 F170.00
G01 X23.3649 Y25.9574 F170.00
G01 X23.3752 Y25.9034 F170.00
G01 X23.3814 Y25.8118 F170.00
G01 X23.3844 Y25.7818 F170.00
G01 X23.3881 Y25.7573 F170.00
G01 X23.3906 Y25.7439 F170.00
G01 X23.3933 Y25.7314 F170.00
G01 X23.3993 Y25.7073 F170.00
G01 X23.4071 Y25.6821 F170.00
G01 X23.4155 Y25.6587 F170.00
G01 X23.4256 Y25.6344 F170.00
G01 X23.4363 Y25.6120 F170.00
G01 X23.4488 Y25.5887 F170.00
G01 X23.4616 Y25.5675 F170.00
G01 X23.4695 Y25.5555 F170.00
G01 X23.4838 Y25.5352 F170.00
G01 X23.5001 Y25.5145 F170.00
G01 X23.5159 Y25.4963 F170.00
G01 X23.5246 Y25.4869 F170.00
G01 X23.5433 Y25.4683 F170.00
G01 X23.5617 Y25.4517 F170.00
G01 X23.5822 Y25.4350 F170.00
G01 X23.6022 Y25.4203 F170.00
G01 X23.6241 Y25.4056 F170.00
G01 X23.6350 Y25.3990 F170.00
G01 X23.6560 Y25.3871 F170.00
G01 X23.6796 Y25.3753 F170.00
G01 X23.7037 Y25.3647 F170.00
G01 X23.7276 Y25.3555 F170.00
G01 X23.7527 Y25.3473 F170.00
G01 X23.7760 Y25.3410 F170.00
G01 X23.7884 Y25.3380 F170.00
G01 X23.8143 Y25.3329 F170.00
G01 X23.8388 Y25.3294 F170.00
G01 X23.8651 Y25.3268 F170.00
G01 X23.8778 Y25.3261 F170.00
G01 X23.9019 Y25.3255 F170.00
G01 X23.9283 Y25.3262 F170.00
G01 X23.9546 Y25.3282 F170.00
G01 X23.9800 Y25.3314 F170.00
G01 X24.0059 Y25.3360 F170.00
G01 X24.0295 Y25.3414 F170.00
G01 X24.0418 Y25.3446 F170.00
G01 X24.0670 Y25.3524 F170.00
G01 X24.0791 Y25.3565 F170.00
G01 X24.1015 Y25.3652 F170.00
G01 X24.1257 Y25.3760 F170.00
G01 X24.1498 Y25.3882 F170.00
G01 X24.1708 Y25.4002 F170.00
G01 X24.1816 Y25.4069 F170.00
G01 X24.2036 Y25.4216 F170.00
G01 X24.2234 Y25.4364 F170.00
G01 X24.2438 Y25.4532 F170.00
G01 X24.2534 Y25.4617 F170.00
G01 X24.2708 Y25.4783 F170.00
G01 X24.2890 Y25.4975 F170.00
G01 X24.3056 Y25.5168 F170.00
G01 X24.3214 Y25.5371 F170.00
G01 X24.3365 Y25.5587 F170.00
G01 X24.3501 Y25.5803 F170.00
G01 X24.3630 Y25.6033 F170.00
G01 X24.3738 Y25.6249 F170.00
G01 X24.3791 Y25.6365 F170.00
G01 X24.3892 Y25.6609 F170.00
G01 X24.3975 Y25.6843 F170.00
G01 X24.4018 Y25.6980 F170.00
G01 X24.4083 Y25.7219 F170.00
G01 X24.4138 Y25.7469 F170.00
G01 X24.4180 Y25.7715 F170.00
G01 X24.4210 Y25.7961 F170.00
G01 X24.4225 Y25.8142 F170.00
G01 X24.4283 Y25.9051 F170.00
G01 X24.4383 Y25.9575 F170.00
G01 X24.4537 Y26.0052 F170.00
G01 X24.4745 Y26.0499 F170.00
G01 X24.5011 Y26.0926 F170.00
G01 X24.5337 Y26.1338 F170.00
G01 X24.5726 Y26.1733 F170.00
G01 X24.6178 Y26.2105 F170.00
G01 X24.6688 Y26.2448 F170.00
G01 X24.7249 Y26.2754 F170.00
G01 X24.7851 Y26.3015 F170.00
G01 X24.8481 Y26.3225 F170.00
G01 X24.9127 Y26.3379 F170.00
G01 X24.9775 Y26.3476 F170.00
G01 X25.0410 Y26.3514 F170.00
G01 X25.1018 Y26.3495 F170.00
G01 X25.1587 Y26.3422 F170.00
G01 X25.2105 Y26.3303 F170.00
G01 X25.2567 Y26.3142 F170.00
G01 X25.2969 Y26.2949 F170.00
G01 X25.3316 Y26.2728 F170.00
G01 X25.3616 Y26.2477 F170.00
G01 X25.3881 Y26.2189 F170.00
G01 X25.4122 Y26.1844 F170.00
G01 X25.4343 Y26.1417 F170.00
G01 X25.4538 Y26.0876 F170.00
G01 X25.4693 Y26.0195 F170.00
G01 X25.4785 Y25.9351 F170.00
G01 X25.4789 Y25.8331 F170.00
G01 X25.4678 Y25.7127 F170.00
G01 X25.4429 Y25.5735 F170.00
G01 X25.4074 Y25.4369 F170.00
G01 X25.3991 Y25.4176 F170.00
G01 X25.3840 Y25.3900 F170.00
G01 X25.3678 Y25.3662 F170.00
G01 X25.3497 Y25.3445 F170.00
G01 X25.3285 Y25.3235 F170.00
G01 X25.3033 Y25.3023 F170.00
G01 X25.2729 Y25.2806 F170.00
G01 X25.2368 Y25.2584 F170.00
G01 X25.1947 Y25.2359 F170.00
G01 X25.1506 Y25.2151 F170.00
G01 X25.0311 Y25.1673 F170.00
G01 X24.8975 Y25.1218 F170.00
G01 X24.7468 Y25.0740 F170.00
G01 X24.5822 Y25.0206 F170.00
G01 X24.4129 Y24.9588 F170.00
G01 X24.3181 Y24.9193 F170.00
G01 X24.2256 Y24.8760 F170.00
G01 X24.1321 Y24.8263 F170.00
G01 X24.0540 Y24.7790 F170.00
G01 X24.0396 Y24.7699 F170.00
G01 X24.0243 Y24.7595 F170.00
G01 X23.9542 Y24.7099 F170.00
G01 X23.9036 Y24.7476 F170.00
G01 X23.8882 Y24.7586 F170.00
G01 X23.8737 Y24.7682 F170.00
G01 X23.7981 Y24.8163 F170.00
G01 X23.7091 Y24.8660 F170.00
G01 X23.6191 Y24.9101 F170.00
G01 X23.5283 Y24.9497 F170.00
G01 X23.3662 Y25.0112 F170.00
G01 X22.9358 Y25.1543 F170.00
G01 X22.8249 Y25.1983 F170.00
G01 X22.7833 Y25.2177 F170.00
G01 X22.7435 Y25.2386 F170.00
G01 X22.7096 Y25.2590 F170.00
G01 X22.6810 Y25.2789 F170.00
G01 X22.6573 Y25.2983 F170.00
G00 X22.6573 Y25.2983
G01 F120.00
G01 Z-1.6000
G01 F170.00
G01 X22.6374 Y25.3174 F170.00
G01 X22.6204 Y25.3371 F170.00
G01 X22.6051 Y25.3584 F170.00
G01 X22.5906 Y25.3833 F170.00
G01 X22.5810 Y25.4041 F170.00
G01 X22.5353 Y25.5509 F170.00
G01 X22.5012 Y25.6960 F170.00
G01 X22.4821 Y25.8224 F170.00
G01 X22.4754 Y25.9300 F170.00
G01 X22.4788 Y26.0192 F170.00
G01 X22.4895 Y26.0909 F170.00
G01 X22.5048 Y26.1468 F170.00
G01 X22.5226 Y26.1894 F170.00
G01 X22.5417 Y26.2218 F170.00
G01 X22.5618 Y26.2472 F170.00
G01 X22.5837 Y26.2682 F170.00
G01 X22.6089 Y26.2865 F170.00
G01 X22.6387 Y26.3027 F170.00
G01 X22.6740 Y26.3166 F170.00
G01 X22.7151 Y26.3275 F170.00
G01 X22.7616 Y26.3346 F170.00
G01 X22.8128 Y26.3371 F170.00
G01 X22.8673 Y26.3344 F170.00
G01 X22.9240 Y26.3263 F170.00
G01 X22.9814 Y26.3127 F170.00
G01 X23.0381 Y26.2937 F170.00
G01 X23.0928 Y26.2696 F170.00
G01 X23.1443 Y26.2410 F170.00
G01 X23.1917 Y26.2086 F170.00
G01 X23.2340 Y26.1729 F170.00
G01 X23.2710 Y26.1346 F170.00
G01 X23.3025 Y26.0940 F170.00
G01 X23.3285 Y26.0514 F170.00
G01 X23.3493 Y26.0062 F170.00
G01 X23.3649 Y25.9574 F170.00
G01 X23.3752 Y25.9034 F170.00
G01 X23.3814 Y25.8118 F170.00
G01 X23.3844 Y25.7818 F170.00
G01 X23.3881 Y25.7573 F170.00
G01 X23.3906 Y25.7439 F170.00
G01 X23.3933 Y25.7314 F170.00
G01 X23.3993 Y25.7073 F170.00
G01 X23.4071 Y25.6821 F170.00
G01 X23.4155 Y25.6587 F170.00
G01 X23.4256 Y25.6344 F170.00
G01 X23.4363 Y25.6120 F170.00
G01 X23.4488 Y25.5887 F170.00
G01 X23.4616 Y25.5675 F170.00
G01 X23.4695 Y25.5555 F170.00
G01 X23.4838 Y25.5352 F170.00
G01 X23.5001 Y25.5145 F170.00
G01 X23.5159 Y25.4963 F170.00
G01 X23.5246 Y25.4869 F170.00
G01 X23.5433 Y25.4683 F170.00
G01 X23.5617 Y25.4517 F170.00
G01 X23.5822 Y25.4350 F170.00
G01 X23.6022 Y25.4203 F170.00
G01 X23.6241 Y25.4056 F170.00
G01 X23.6350 Y25.3990 F170.00
G01 X23.6560 Y25.3871 F170.00
G01 X23.6796 Y25.3753 F170.00
G01 X23.7037 Y25.3647 F170.00
G01 X23.7276 Y25.3555 F170.00
G01 X23.7527 Y25.3473 F170.00
G01 X23.7760 Y25.3410 F170.00
G01 X23.7884 Y25.3380 F170.00
G01 X23.8143 Y25.3329 F170.00
G01 X23.8388 Y25.3294 F170.00
G01 X23.8651 Y25.3268 F170.00
G01 X23.8778 Y25.3261 F170.00
G01 X23.9019 Y25.3255 F170.00
G01 X23.9283 Y25.3262 F170.00
G01 X23.9546 Y25.3282 F170.00
G01 X23.9800 Y25.3314 F170.00
G01 X24.0059 Y25.3360 F170.00
G01 X24.0295 Y25.3414 F170.00
G01 X24.0418 Y25.3446 F170.00
G01 X24.0670 Y25.3524 F170.00
G01 X24.0791 Y25.3565 F170.00
G01 X24.1015 Y25.3652 F170.00
G01 X24.1257 Y25.3760 F170.00
G01 X24.1498 Y25.3882 F170.00
G01 X24.1708 Y25.4002 F170.00
G01 X24.1816 Y25.4069 F170.00
G01 X24.2036 Y25.4216 F170.00
G01 X24.2234 Y25.4364 F170.00
G01 X24.2438 Y25.4532 F170.00
G01 X24.2534 Y25.4617 F170.00
G01 X24.2708 Y25.4783 F170.00
G01 X24.2890 Y25.4975 F170.00
G01 X24.3056 Y25.5168 F170.00
G01 X24.3214 Y25.5371 F170.00
G01 X24.3365 Y25.5587 F170.00
G01 X24.3501 Y25.5803 F170.00
G01 X24.3630 Y25.6033 F170.00
G01 X24.3738 Y25.6249 F170.00
G01 X24.3791 Y25.6365 F170.00
G01 X24.3892 Y25.6609 F170.00
G01 X24.3975 Y25.6843 F170.00
G01 X24.4018 Y25.6980 F170.00
G01 X24.4083 Y25.7219 F170.00
G01 X24.4138 Y25.7469 F170.00
G01 X24.4180 Y25.7715 F170.00
G01 X24.4210 Y25.7961 F170.00
G01 X24.4225 Y25.8142 F170.00
G01 X24.4283 Y25.9051 F170.00
G01 X24.4383 Y25.9575 F170.00
G01 X24.4537 Y26.0052 F170.00
G01 X24.4745 Y26.0499 F170.00
G01 X24.5011 Y26.0926 F170.00
G01 X24.5337 Y26.1338 F170.00
G01 X24.5726 Y26.1733 F170.00
G01 X24.6178 Y26.2105 F170.00
G01 X24.6688 Y26.2448 F170.00
G01 X24.7249 Y26.2754 F170.00
G01 X24.7851 Y26.3015 F170.00
G01 X24.8481 Y26.3225 F170.00
G01 X24.9127 Y26.3379 F170.00
G01 X24.9775 Y26.3476 F170.00
G01 X25.0410 Y26.3514 F170.00
G01 X25.1018 Y26.3495 F170.00
G01 X25.1587 Y26.3422 F170.00
G01 X25.2105 Y26.3303 F170.00
G01 X25.2567 Y26.3142 F170.00
G01 X25.2969 Y26.2949 F170.00
G01 X25.3316 Y26.2728 F170.00
G01 X25.3616 Y26.2477 F170.00
G01 X25.3881 Y26.2189 F170.00
G01 X25.4122 Y26.1844 F170.00
G01 X25.4343 Y26.1417 F170.00
G01 X25.4538 Y26.0876 F170.00
G01 X25.4693 Y26.0195 F170.00
G01 X25.4785 Y25.9351 F170.00
G01 X25.4789 Y25.8331 F170.00
G01 X25.4678 Y25.7127 F170.00
G01 X25.4429 Y25.5735 F170.00
G01 X25.4074 Y25.4369 F170.00
G01 X25.3991 Y25.4176 F170.00
G01 X25.3840 Y25.3900 F170.00
G01 X25.3678 Y25.3662 F170.00
G01 X25.3497 Y25.3445 F170.00
G01 X25.3285 Y25.3235 F170.00
G01 X25.3033 Y25.3023 F170.00
G01 X25.2729 Y25.2806 F170.00
G01 X25.2368 Y25.2584 F170.00
G01 X25.1947 Y25.2359 F170.00
G01 X25.1506 Y25.2151 F170.00
G01 X25.0311 Y25.1673 F170.00
G01 X24.8975 Y25.1218 F170.00
G01 X24.7468 Y25.0740 F170.00
G01 X24.5822 Y25.0206 F170.00
G01 X24.4129 Y24.9588 F170.00
G01 X24.3181 Y24.9193 F170.00
G01 X24.2256 Y24.8760 F170.00
G01 X24.1321 Y24.8263 F170.00
G01 X24.0540 Y24.7790 F170.00
G01 X24.0396 Y24.7699 F170.00
G01 X24.0243 Y24.7595 F170.00
G01 X23.9542 Y24.7099 F170.00
G01 X23.9036 Y24.7476 F170.00
G01 X23.8882 Y24.7586 F170.00
G01 X23.8737 Y24.7682 F170.00
G01 X23.7981 Y24.8163 F170.00
G01 X23.7091 Y24.8660 F170.00
G01 X23.6191 Y24.9101 F170.00
G01 X23.5283 Y24.9497 F170.00
G01 X23.3662 Y25.0112 F170.00
G01 X22.9358 Y25.1543 F170.00
G01 X22.8249 Y25.1983 F170.00
G01 X22.7833 Y25.2177 F170.00
G01 X22.7435 Y25.2386 F170.00
G01 X22.7096 Y25.2590 F170.00
G01 X22.6810 Y25.2789 F170.00
G01 X22.6573 Y25.2983 F170.00
G00 X22.6573 Y25.2983
G01 F120.00
G01 Z-2.0000
G01 F170.00
G01 X22.6374 Y25.3174 F170.00
G01 X22.6204 Y25.3371 F170.00
G01 X22.6051 Y25.3584 F170.00
G01 X22.5906 Y25.3833 F170.00
G01 X22.5810 Y25.4041 F170.00
G01 X22.5353 Y25.5509 F170.00
G01 X22.5012 Y25.6960 F170.00
G01 X22.4821 Y25.8224 F170.00
G01 X22.4754 Y25.9300 F170.00
G01 X22.4788 Y26.0192 F170.00
G01 X22.4895 Y26.0909 F170.00
G01 X22.5048 Y26.1468 F170.00
G01 X22.5226 Y26.1894 F170.00
G01 X22.5417 Y26.2218 F170.00
G01 X22.5618 Y26.2472 F170.00
G01 X22.5837 Y26.2682 F170.00
G01 X22.6089 Y26.2865 F170.00
G01 X22.6387 Y26.3027 F170.00
G01 X22.6740 Y26.3166 F170.00
G01 X22.7151 Y26.3275 F170.00
G01 X22.7616 Y26.3346 F170.00
G01 X22.8128 Y26.3371 F170.00
G01 X22.8673 Y26.3344 F170.00
G01 X22.9240 Y26.3263 F170.00
G01 X22.9814 Y26.3127 F170.00
G01 X23.0381 Y26.2937 F170.00
G01 X23.0928 Y26.2696 F170.00
G01 X23.1443 Y26.2410 F170.00
G01 X23.1917 Y26.2086 F170.00
G01 X23.2340 Y26.1729 F170.00
G01 X23.2710 Y26.1346 F170.00
G01 X23.3025 Y26.0940 F170.00
G01 X23.3285 Y26.0514 F170.00
G01 X23.3493 Y26.0062 F170.00
G01 X23.3649 Y25.9574 F170.00
G01 X23.3752 Y25.9034 F170.00
G01 X23.3814 Y25.8118 F170.00
G01 X23.3844 Y25.7818 F170.00
G01 X23.3881 Y25.7573 F170.00
G01 X23.3906 Y25.7439 F170.00
G01 X23.3933 Y25.7314 F170.00
G01 X23.3993 Y25.7073 F170.00
G01 X23.4071 Y25.6821 F170.00
G01 X23.4155 Y25.6587 F170.00
G01 X23.4256 Y25.6344 F170.00
G01 X23.4363 Y25.6120 F170.00
G01 X23.4488 Y25.5887 F170.00
G01 X23.4616 Y25.5675 F170.00
G01 X23.4695 Y25.5555 F170.00
