(G-CODE GENERATED BY FLATCAM v8.994 - www.flatcam.org - Version Date: 2020/11/7)

(Name: tuxpin-PTH.drl_cnc)
(Type: G-code from Geometry)
(Units: MM)

(Created on Sunday, 23 January 2022 at 16:59)

(This preprocessor is the default preprocessor used by FlatCAM.)
(It is made to work with MACH3 compatible motion controllers.)


(TOOLS DIAMETER: )
(Tool: 1 -> Dia: 0.8000999999999999)

(FEEDRATE Z: )
(Tool: 1 -> Feedrate: 80.0)

(FEEDRATE RAPIDS: )
(Tool: 1 -> Feedrate Rapids: 1500)

(Z_CUT: )
(Tool: 1 -> Z_Cut: -2.0)

(Tools Offset: )
(Tool: 1 -> Offset Z: 0.0)

(Z_MOVE: )
(Tool: 1 -> Z_Move: 2)

(Z Toolchange: 15 mm)
(X,Y Toolchange: 0.0000, 0.0000 mm)
(Z Start: None mm)
(Z End: 15.0 mm)
(X,Y End: 0.0000, 0.0000 mm)
(Steps per circle: 64)
(Preprocessor Excellon: default)

(X range:   14.2780 ...   22.5711  mm)
(Y range:    3.3150 ...   20.2441  mm)

(Spindle Speed: 9000 RPM)
G21
G90
G94

G01 F80.00

M5
G00 Z15.0000
T1
G00 X0.0000 Y0.0000                
M6
(MSG, Change to Tool Dia = 0.8001 ||| Total drills for tool T1 = 3)
M0
G00 Z15.0000

G01 F80.00
M03 S9000
G4 P5.0
G00 X22.1710 Y3.7150
G01 Z-2.0000
G01 Z0
G00 Z2.0000
G00 X14.6780 Y19.8440
G01 Z-2.0000
G01 Z0
G00 Z2.0000
G00 X17.3450 Y19.8440
G01 Z-2.0000
G01 Z0
G00 Z2.0000
M05
G00 Z15.00
G00 X0.0 Y0.0


