(G-CODE GENERATED BY FLATCAM v8.994 - www.flatcam.org - Version Date: 2020/11/7)

(Name: tuxpin-Edge_Cuts.gbr_iso_combined_cnc)
(Type: G-code from Geometry)
(Units: MM)

(Created on Sunday, 23 January 2022 at 17:55)

(This preprocessor is used with a motion controller loaded with GRBL firmware.)
(It is configured to be compatible with almost any version of GRBL firmware.)

(TOOL DIAMETER: 1.0 mm)
(Feedrate_XY: 170.0 mm/min)
(Feedrate_Z: 120.0 mm/min)
(Feedrate rapids 1500.0 mm/min)

(Z_Cut: -2.0 mm)
(DepthPerCut: 0.8 mm <=>3 passes)
(Z_Move: 2.0 mm)
(Z Start: None mm)
(Z End: 15.0 mm)
(X,Y End: 0.0000, 0.0000 mm)
(Steps per circle: 64)
(Steps per circle: 64)
(Preprocessor Geometry: GRBL_11_no_M6)

(X range:   -6.3351 ...   29.9407  mm)
(Y range:    0.2552 ...   48.4040  mm)

(Spindle Speed: 11000.0 RPM)
G21
G90
G17
G94


G01 F170.00

M5             
G00 Z15.0000
G00 X0.0000 Y0.0000                
T1
(MSG, Change to Tool Dia = 1.0000)
M0
G00 Z15.0000
        
M03 S11000.0
G4 P5.0
G01 F170.00
G00 X-5.0815 Y9.1351
G01 F120.00
G01 Z-0.8000
G01 F170.00
G01 X-5.0857 Y9.1441 F170.00
G01 X-5.0873 Y9.1477 F170.00
G01 X-5.0913 Y9.1568 F170.00
G01 X-5.3029 Y9.6504 F170.00
G01 X-5.3068 Y9.6597 F170.00
G01 X-5.3083 Y9.6634 F170.00
G01 X-5.3120 Y9.6728 F170.00
G01 X-5.5032 Y10.1735 F170.00
G01 X-5.5067 Y10.1831 F170.00
G01 X-5.5081 Y10.1870 F170.00
G01 X-5.5115 Y10.1967 F170.00
G01 X-5.6816 Y10.7037 F170.00
G01 X-5.6848 Y10.7137 F170.00
G01 X-5.6860 Y10.7177 F170.00
G01 X-5.6891 Y10.7277 F170.00
G01 X-5.8375 Y11.2406 F170.00
G01 X-5.8404 Y11.2509 F170.00
G01 X-5.8415 Y11.2550 F170.00
G01 X-5.8441 Y11.2654 F170.00
G01 X-5.9703 Y11.7835 F170.00
G01 X-5.9728 Y11.7942 F170.00
G01 X-5.9738 Y11.7986 F170.00
G01 X-5.9761 Y11.8094 F170.00
G01 X-6.0597 Y12.2333 F170.00
G01 X-6.0614 Y12.2425 F170.00
G01 X-6.0621 Y12.2462 F170.00
G01 X-6.0636 Y12.2555 F170.00
G01 X-6.1467 Y12.7799 F170.00
G01 X-6.1481 Y12.7891 F170.00
G01 X-6.1486 Y12.7928 F170.00
G01 X-6.1498 Y12.8020 F170.00
G01 X-6.2251 Y13.4258 F170.00
G01 X-6.2261 Y13.4350 F170.00
G01 X-6.2265 Y13.4387 F170.00
G01 X-6.2273 Y13.4479 F170.00
G01 X-6.2875 Y14.1701 F170.00
G01 X-6.2882 Y14.1793 F170.00
G01 X-6.2884 Y14.1830 F170.00
G01 X-6.2889 Y14.1923 F170.00
G01 X-6.3266 Y15.0116 F170.00
G01 X-6.3269 Y15.0210 F170.00
G01 X-6.3270 Y15.0247 F170.00
G01 X-6.3272 Y15.0340 F170.00
G01 X-6.3351 Y15.9494 F170.00
G01 X-6.3351 Y15.9588 F170.00
G01 X-6.3350 Y15.9626 F170.00
G01 X-6.3349 Y15.9719 F170.00
G01 X-6.3056 Y16.9823 F170.00
G01 X-6.3054 Y16.9893 F170.00
G01 X-6.3053 Y16.9921 F170.00
G01 X-6.3049 Y16.9991 F170.00
G01 X-6.2741 Y17.5395 F170.00
G01 X-6.2738 Y17.5442 F170.00
G01 X-6.2737 Y17.5461 F170.00
G01 X-6.2734 Y17.5508 F170.00
G01 X-6.2306 Y18.1145 F170.00
G01 X-6.2300 Y18.1216 F170.00
G01 X-6.2297 Y18.1244 F170.00
G01 X-6.2285 Y18.1366 F170.00
G01 X-6.2269 Y18.1488 F170.00
G01 X-6.2259 Y18.1557 F170.00
G01 X-6.2241 Y18.1679 F170.00
G01 X-6.2219 Y18.1799 F170.00
G01 X-6.2214 Y18.1827 F170.00
G01 X-6.2200 Y18.1897 F170.00
G01 X-6.1017 Y18.7666 F170.00
G01 X-6.1002 Y18.7736 F170.00
G01 X-6.0996 Y18.7764 F170.00
G01 X-6.0980 Y18.7834 F170.00
G01 X-5.9721 Y19.3183 F170.00
G01 X-5.9703 Y19.3258 F170.00
G01 X-5.9695 Y19.3288 F170.00
G01 X-5.9675 Y19.3364 F170.00
G01 X-5.8351 Y19.8299 F170.00
G01 X-5.8328 Y19.8381 F170.00
G01 X-5.8319 Y19.8413 F170.00
G01 X-5.8295 Y19.8495 F170.00
G01 X-5.6913 Y20.3023 F170.00
G01 X-5.6885 Y20.3112 F170.00
G01 X-5.6873 Y20.3147 F170.00
G01 X-5.6844 Y20.3236 F170.00
G01 X-5.5414 Y20.7363 F170.00
G01 X-5.5379 Y20.7461 F170.00
G01 X-5.5364 Y20.7500 F170.00
G01 X-5.5328 Y20.7596 F170.00
G01 X-5.3858 Y21.1330 F170.00
G01 X-5.3814 Y21.1437 F170.00
G01 X-5.3796 Y21.1480 F170.00
G01 X-5.3750 Y21.1587 F170.00
G01 X-5.2250 Y21.4932 F170.00
G01 X-5.2195 Y21.5052 F170.00
G01 X-5.2172 Y21.5099 F170.00
G01 X-5.2114 Y21.5217 F170.00
G01 X-5.0592 Y21.8182 F170.00
G01 X-5.0521 Y21.8316 F170.00
G01 X-5.0492 Y21.8369 F170.00
G01 X-5.0416 Y21.8500 F170.00
G01 X-4.8883 Y22.1090 F170.00
G01 X-4.8790 Y22.1241 F170.00
G01 X-4.8752 Y22.1300 F170.00
G01 X-4.8654 Y22.1447 F170.00
G01 X-4.7116 Y22.3669 F170.00
G01 X-4.7055 Y22.3754 F170.00
G01 X-4.6993 Y22.3838 F170.00
G01 X-4.6942 Y22.3905 F170.00
G01 X-4.6878 Y22.3988 F170.00
G01 X-4.6813 Y22.4070 F170.00
G01 X-4.5276 Y22.5934 F170.00
G01 X-4.5274 Y22.5936 F170.00
G01 X-4.5195 Y22.6030 F170.00
G01 X-4.5113 Y22.6122 F170.00
G01 X-4.5049 Y22.6192 F170.00
G01 X-4.4965 Y22.6282 F170.00
G01 X-4.4879 Y22.6369 F170.00
G01 X-4.3354 Y22.7880 F170.00
G01 X-4.3310 Y22.7924 F170.00
G01 X-4.3292 Y22.7941 F170.00
G01 X-4.3203 Y22.8025 F170.00
G01 X-4.3111 Y22.8107 F170.00
G01 X-4.3056 Y22.8155 F170.00
G01 X-4.2963 Y22.8235 F170.00
G01 X-4.2867 Y22.8312 F170.00
G01 X-4.2848 Y22.8328 F170.00
G01 X-4.2799 Y22.8366 F170.00
G01 X-4.1304 Y22.9521 F170.00
G01 X-4.1199 Y22.9600 F170.00
G01 X-4.1156 Y22.9631 F170.00
G01 X-4.1056 Y22.9703 F170.00
G01 X-4.0955 Y22.9771 F170.00
G01 X-4.0916 Y22.9797 F170.00
G01 X-4.0813 Y22.9863 F170.00
G01 X-4.0708 Y22.9926 F170.00
G01 X-4.0663 Y22.9953 F170.00
G01 X-4.0549 Y23.0019 F170.00
G01 X-3.9085 Y23.0832 F170.00
G01 X-3.8991 Y23.0882 F170.00
G01 X-3.8896 Y23.0931 F170.00
G01 X-3.8820 Y23.0969 F170.00
G01 X-3.8710 Y23.1023 F170.00
G01 X-3.8598 Y23.1074 F170.00
G01 X-3.8586 Y23.1079 F170.00
G01 X-3.8473 Y23.1127 F170.00
G01 X-3.8359 Y23.1173 F170.00
G01 X-3.8280 Y23.1203 F170.00
G01 X-3.8180 Y23.1240 F170.00
G01 X-3.8079 Y23.1275 F170.00
G01 X-3.6656 Y23.1752 F170.00
G01 X-3.6608 Y23.1768 F170.00
G01 X-3.6589 Y23.1774 F170.00
G01 X-3.6472 Y23.1811 F170.00
G01 X-3.6354 Y23.1844 F170.00
G01 X-3.6279 Y23.1865 F170.00
G01 X-3.6160 Y23.1895 F170.00
G01 X-3.6040 Y23.1923 F170.00
G01 X-3.6021 Y23.1927 F170.00
G01 X-3.5900 Y23.1952 F170.00
G01 X-3.5780 Y23.1974 F170.00
G01 X-3.5703 Y23.1987 F170.00
G01 X-3.5581 Y23.2006 F170.00
G01 X-3.5460 Y23.2021 F170.00
G01 X-3.5440 Y23.2024 F170.00
G01 X-3.5390 Y23.2029 F170.00
G01 X-3.4016 Y23.2177 F170.00
G01 X-3.3909 Y23.2188 F170.00
G01 X-3.3866 Y23.2191 F170.00
G01 X-3.3743 Y23.2200 F170.00
G01 X-3.3621 Y23.2206 F170.00
G01 X-3.3566 Y23.2208 F170.00
G01 X-3.3443 Y23.2211 F170.00
G01 X-3.3320 Y23.2211 F170.00
G01 X-3.3277 Y23.2211 F170.00
G01 X-3.3155 Y23.2208 F170.00
G01 X-3.3032 Y23.2202 F170.00
G01 X-3.2977 Y23.2198 F170.00
G01 X-3.2855 Y23.2189 F170.00
G01 X-3.2733 Y23.2177 F170.00
G01 X-3.2690 Y23.2172 F170.00
G01 X-3.2582 Y23.2159 F170.00
G01 X-3.1267 Y23.1984 F170.00
G01 X-3.1152 Y23.1967 F170.00
G01 X-3.1106 Y23.1960 F170.00
G01 X-3.0985 Y23.1940 F170.00
G01 X-3.0864 Y23.1916 F170.00
G01 X-3.0814 Y23.1906 F170.00
G01 X-3.0694 Y23.1879 F170.00
G01 X-3.0575 Y23.1850 F170.00
G01 X-3.0530 Y23.1838 F170.00
G01 X-3.0411 Y23.1806 F170.00
G01 X-3.0294 Y23.1771 F170.00
G01 X-3.0245 Y23.1755 F170.00
G01 X-3.0128 Y23.1717 F170.00
G01 X-3.0012 Y23.1676 F170.00
G01 X-2.9969 Y23.1660 F170.00
G01 X-2.9860 Y23.1619 F170.00
G01 X-2.8612 Y23.1127 F170.00
G01 X-2.8546 Y23.1101 F170.00
G01 X-2.8520 Y23.1090 F170.00
G01 X-2.8407 Y23.1042 F170.00
G01 X-2.8295 Y23.0991 F170.00
G01 X-2.8232 Y23.0962 F170.00
G01 X-2.8121 Y23.0908 F170.00
G01 X-2.8012 Y23.0852 F170.00
G01 X-2.7987 Y23.0839 F170.00
G01 X-2.7879 Y23.0780 F170.00
G01 X-2.7773 Y23.0718 F170.00
G01 X-2.7713 Y23.0683 F170.00
G01 X-2.7609 Y23.0619 F170.00
G01 X-2.7506 Y23.0552 F170.00
G01 X-2.7482 Y23.0536 F170.00
G01 X-2.7423 Y23.0497 F170.00
G01 X-2.6251 Y22.9695 F170.00
G01 X-2.6153 Y22.9626 F170.00
G01 X-2.6057 Y22.9555 F170.00
G01 X-2.5981 Y22.9498 F170.00
G01 X-2.5884 Y22.9422 F170.00
G01 X-2.5789 Y22.9345 F170.00
G01 X-2.5787 Y22.9343 F170.00
G01 X-2.5694 Y22.9263 F170.00
G01 X-2.5603 Y22.9181 F170.00
G01 X-2.5532 Y22.9116 F170.00
G01 X-2.5446 Y22.9034 F170.00
G01 X-2.5361 Y22.8950 F170.00
G01 X-2.4274 Y22.7844 F170.00
G01 X-2.4166 Y22.7731 F170.00
G01 X-2.4123 Y22.7685 F170.00
G01 X-2.4041 Y22.7593 F170.00
G01 X-2.3961 Y22.7500 F170.00
G01 X-2.3939 Y22.7473 F170.00
G01 X-2.3861 Y22.7378 F170.00
G01 X-2.3786 Y22.7281 F170.00
G01 X-2.3748 Y22.7231 F170.00
G01 X-2.3655 Y22.7104 F170.00
G01 X-2.2663 Y22.5702 F170.00
G01 X-2.2615 Y22.5632 F170.00
G01 X-2.2595 Y22.5604 F170.00
G01 X-2.2527 Y22.5502 F170.00
G01 X-2.2462 Y22.5398 F170.00
G01 X-2.2428 Y22.5344 F170.00
G01 X-2.2366 Y22.5238 F170.00
G01 X-2.2305 Y22.5131 F170.00
G01 X-2.2289 Y22.5102 F170.00
G01 X-2.2249 Y22.5027 F170.00
G01 X-2.1359 Y22.3334 F170.00
G01 X-2.1347 Y22.3310 F170.00
G01 X-2.1342 Y22.3300 F170.00
G01 X-2.1287 Y22.3191 F170.00
G01 X-2.1234 Y22.3080 F170.00
G01 X-2.1198 Y22.3000 F170.00
G01 X-2.1148 Y22.2888 F170.00
G01 X-2.1101 Y22.2775 F170.00
G01 X-2.1097 Y22.2765 F170.00
G01 X-2.1087 Y22.2739 F170.00
G01 X-2.0310 Y22.0763 F170.00
G01 X-2.0269 Y22.0656 F170.00
G01 X-2.0231 Y22.0549 F170.00
G01 X-2.0201 Y22.0462 F170.00
G01 X-2.0166 Y22.0354 F170.00
G01 X-2.0133 Y22.0245 F170.00
G01 X-1.9476 Y21.7990 F170.00
G01 X-1.9449 Y21.7897 F170.00
G01 X-1.9425 Y21.7803 F170.00
G01 X-1.9406 Y21.7727 F170.00
G01 X-1.9383 Y21.7633 F170.00
G01 X-1.9363 Y21.7538 F170.00
G01 X-1.8835 Y21.5012 F170.00
G01 X-1.8804 Y21.4847 F170.00
G01 X-1.8792 Y21.4780 F170.00
G01 X-1.8766 Y21.4614 F170.00
G01 X-1.8377 Y21.1824 F170.00
G01 X-1.8359 Y21.1676 F170.00
G01 X-1.8352 Y21.1617 F170.00
G01 X-1.8338 Y21.1469 F170.00
G01 X-1.8097 Y20.8421 F170.00
G01 X-1.8088 Y20.8288 F170.00
G01 X-1.8085 Y20.8235 F170.00
G01 X-1.8080 Y20.8102 F170.00
G01 X-1.7995 Y20.4801 F170.00
G01 X-1.7993 Y20.4680 F170.00
G01 X-1.7993 Y20.4632 F170.00
G01 X-1.7994 Y20.4511 F170.00
G01 X-1.8074 Y20.0965 F170.00
G01 X-1.8078 Y20.0854 F170.00
G01 X-1.8080 Y20.0810 F170.00
G01 X-1.8086 Y20.0699 F170.00
G01 X-1.8340 Y19.6914 F170.00
G01 X-1.8348 Y19.6811 F170.00
G01 X-1.8351 Y19.6770 F170.00
G01 X-1.8361 Y19.6667 F170.00
G01 X-1.8798 Y19.2651 F170.00
G01 X-1.8810 Y19.2554 F170.00
G01 X-1.8814 Y19.2516 F170.00
G01 X-1.8828 Y19.2420 F170.00
G01 X-1.9434 Y18.8325 F170.00
G01 X-2.0232 Y18.0146 F170.00
G01 X-2.0677 Y17.2196 F170.00
G01 X-2.0744 Y16.4506 F170.00
G01 X-2.0414 Y15.7065 F170.00
G01 X-1.9669 Y14.9859 F170.00
G01 X-1.8487 Y14.2873 F170.00
G01 X-1.6836 Y13.6033 F170.00
G01 X-1.5854 Y13.2761 F170.00
G01 X-1.4735 Y12.9479 F170.00
G01 X-1.3490 Y12.6237 F170.00
G01 X-1.2115 Y12.3032 F170.00
G01 X-1.0608 Y11.9860 F170.00
G01 X-0.8964 Y11.6719 F170.00
G01 X-0.7179 Y11.3607 F170.00
G01 X-0.5250 Y11.0521 F170.00
G01 X-0.3173 Y10.7458 F170.00
G01 X-0.0942 Y10.4416 F170.00
G01 X0.1446 Y10.1394 F170.00
G01 X0.3995 Y9.8389 F170.00
G01 X0.6710 Y9.5401 F170.00
G01 X0.9594 Y9.2428 F170.00
G01 X1.2652 Y8.9468 F170.00
G01 X1.5856 Y8.6549 F170.00
G01 X2.3030 Y8.0556 F170.00
G01 X2.3078 Y8.0516 F170.00
G01 X2.3097 Y8.0500 F170.00
G01 X2.3144 Y8.0459 F170.00
G01 X2.4901 Y7.8914 F170.00
G01 X2.4520 Y8.3401 F170.00
G01 X2.3298 Y9.6031 F170.00
G01 X2.3293 Y9.6086 F170.00
G01 X2.3291 Y9.6108 F170.00
G01 X2.3286 Y9.6163 F170.00
G01 X2.2729 Y10.3641 F170.00
G01 X2.2724 Y10.3716 F170.00
G01 X2.2722 Y10.3746 F170.00
G01 X2.2719 Y10.3822 F170.00
G01 X2.2359 Y11.1953 F170.00
G01 X2.2356 Y11.2051 F170.00
G01 X2.2355 Y11.2091 F170.00
G01 X2.2354 Y11.2189 F170.00
G01 X2.2313 Y12.0890 F170.00
G01 X2.2314 Y12.1010 F170.00
G01 X2.2315 Y12.1058 F170.00
G01 X2.2319 Y12.1179 F170.00
G01 X2.2702 Y13.0000 F170.00
G01 X2.2319 Y12.1179 F170.00
G01 X2.2314 Y12.1010 F170.00
G01 X2.2354 Y11.2189 F170.00
G01 X2.2360 Y11.1953 F170.00
G01 X2.2722 Y10.3746 F170.00
G01 X2.3286 Y9.6163 F170.00
G01 X2.4520 Y8.3401 F170.00
G01 X2.4901 Y7.8914 F170.00
G01 X2.3030 Y8.0556 F170.00
G01 X1.5856 Y8.6549 F170.00
G01 X1.2652 Y8.9468 F170.00
G01 X0.9594 Y9.2428 F170.00
G01 X0.6710 Y9.5401 F170.00
G01 X0.3995 Y9.8389 F170.00
G01 X0.1446 Y10.1394 F170.00
G01 X-0.0942 Y10.4416 F170.00
G01 X-0.3173 Y10.7458 F170.00
G01 X-0.5250 Y11.0521 F170.00
G01 X-0.7179 Y11.3607 F170.00
G01 X-0.8964 Y11.6719 F170.00
G01 X-1.0608 Y11.9860 F170.00
G01 X-1.2115 Y12.3032 F170.00
G01 X-1.3490 Y12.6237 F170.00
G01 X-1.4735 Y12.9479 F170.00
G01 X-1.5854 Y13.2761 F170.00
G01 X-1.6836 Y13.6033 F170.00
G01 X-1.8487 Y14.2873 F170.00
G01 X-1.9669 Y14.9859 F170.00
G01 X-2.0414 Y15.7065 F170.00
G01 X-2.0744 Y16.4506 F170.00
G01 X-2.0677 Y17.2196 F170.00
G01 X-2.0232 Y18.0146 F170.00
G01 X-1.9434 Y18.8325 F170.00
G01 X-1.8814 Y19.2516 F170.00
G01 X-1.8361 Y19.6667 F170.00
G01 X-1.8340 Y19.6914 F170.00
G01 X-1.8086 Y20.0699 F170.00
G01 X-1.8074 Y20.0965 F170.00
G01 X-1.7993 Y20.4632 F170.00
G01 X-1.7995 Y20.4801 F170.00
G01 X-1.8085 Y20.8235 F170.00
G01 X-1.8097 Y20.8421 F170.00
G01 X-1.8352 Y21.1617 F170.00
G01 X-1.8377 Y21.1824 F170.00
G01 X-1.8766 Y21.4614 F170.00
G01 X-1.8792 Y21.4780 F170.00
G01 X-1.8835 Y21.5012 F170.00
G01 X-1.9363 Y21.7538 F170.00
G01 X-1.9425 Y21.7803 F170.00
G01 X-1.9476 Y21.7990 F170.00
G01 X-2.0133 Y22.0245 F170.00
G01 X-2.0201 Y22.0462 F170.00
G01 X-2.0310 Y22.0763 F170.00
G01 X-2.1087 Y22.2739 F170.00
G01 X-2.1198 Y22.3000 F170.00
G01 X-2.1342 Y22.3300 F170.00
G01 X-2.2249 Y22.5027 F170.00
G01 X-2.2366 Y22.5238 F170.00
G01 X-2.2527 Y22.5502 F170.00
G01 X-2.2615 Y22.5632 F170.00
G01 X-2.3655 Y22.7104 F170.00
G01 X-2.3861 Y22.7378 F170.00
G01 X-2.4041 Y22.7593 F170.00
G01 X-2.4166 Y22.7731 F170.00
G01 X-2.5361 Y22.8950 F170.00
G01 X-2.5532 Y22.9116 F170.00
G01 X-2.5694 Y22.9263 F170.00
G01 X-2.5884 Y22.9422 F170.00
G01 X-2.6153 Y22.9626 F170.00
G01 X-2.7423 Y23.0497 F170.00
G01 X-2.7609 Y23.0619 F170.00
G01 X-2.7879 Y23.0780 F170.00
G01 X-2.8012 Y23.0852 F170.00
G01 X-2.8232 Y23.0962 F170.00
G01 X-2.8407 Y23.1042 F170.00
G01 X-2.8612 Y23.1127 F170.00
G01 X-2.9969 Y23.1660 F170.00
G01 X-3.0128 Y23.1717 F170.00
G01 X-3.0294 Y23.1771 F170.00
G01 X-3.0575 Y23.1850 F170.00
G01 X-3.0814 Y23.1906 F170.00
G01 X-3.0985 Y23.1940 F170.00
G01 X-3.1267 Y23.1984 F170.00
G01 X-3.2733 Y23.2177 F170.00
G01 X-3.2977 Y23.2198 F170.00
G01 X-3.3155 Y23.2208 F170.00
G01 X-3.3443 Y23.2211 F170.00
G01 X-3.3743 Y23.2200 F170.00
G01 X-3.3909 Y23.2188 F170.00
G01 X-3.5390 Y23.2029 F170.00
G01 X-3.5703 Y23.1987 F170.00
G01 X-3.5900 Y23.1952 F170.00
G01 X-3.6040 Y23.1923 F170.00
G01 X-3.6354 Y23.1844 F170.00
G01 X-3.6656 Y23.1752 F170.00
G01 X-3.8180 Y23.1240 F170.00
G01 X-3.8359 Y23.1173 F170.00
G01 X-3.8586 Y23.1079 F170.00
G01 X-3.8820 Y23.0969 F170.00
G01 X-3.9085 Y23.0832 F170.00
G01 X-4.0549 Y23.0019 F170.00
G01 X-4.0813 Y22.9863 F170.00
G01 X-4.1056 Y22.9703 F170.00
G01 X-4.1304 Y22.9521 F170.00
G01 X-4.2799 Y22.8366 F170.00
G01 X-4.3056 Y22.8155 F170.00
G01 X-4.3203 Y22.8025 F170.00
G01 X-4.3354 Y22.7880 F170.00
G01 X-4.4879 Y22.6369 F170.00
G01 X-4.5049 Y22.6192 F170.00
G01 X-4.5276 Y22.5934 F170.00
G01 X-4.6813 Y22.4070 F170.00
G01 X-4.6993 Y22.3838 F170.00
G01 X-4.7116 Y22.3669 F170.00
G01 X-4.8653 Y22.1447 F170.00
G01 X-4.8790 Y22.1241 F170.00
G01 X-4.8883 Y22.1090 F170.00
G01 X-5.0416 Y21.8500 F170.00
G01 X-5.0521 Y21.8316 F170.00
G01 X-5.2113 Y21.5217 F170.00
G01 X-5.2250 Y21.4932 F170.00
G01 X-5.3750 Y21.1587 F170.00
G01 X-5.3858 Y21.1330 F170.00
G01 X-5.5364 Y20.7500 F170.00
G01 X-5.6844 Y20.3236 F170.00
G01 X-5.6913 Y20.3023 F170.00
G01 X-5.8328 Y19.8381 F170.00
G01 X-5.9703 Y19.3258 F170.00
G01 X-6.1002 Y18.7736 F170.00
G01 X-6.2200 Y18.1897 F170.00
G01 X-6.2241 Y18.1679 F170.00
G01 X-6.2269 Y18.1488 F170.00
G01 X-6.2285 Y18.1366 F170.00
G01 X-6.2306 Y18.1145 F170.00
G01 X-6.2737 Y17.5461 F170.00
G01 X-6.3056 Y16.9823 F170.00
G01 X-6.3350 Y15.9626 F170.00
G01 X-6.3272 Y15.0340 F170.00
G01 X-6.3266 Y15.0116 F170.00
G01 X-6.2889 Y14.1923 F170.00
G01 X-6.2875 Y14.1701 F170.00
G01 X-6.2265 Y13.4387 F170.00
G01 X-6.1498 Y12.8020 F170.00
G01 X-6.1467 Y12.7799 F170.00
G01 X-6.0621 Y12.2462 F170.00
G01 X-5.9728 Y11.7942 F170.00
G01 X-5.8415 Y11.2550 F170.00
G01 X-5.6890 Y10.7277 F170.00
G01 X-5.6816 Y10.7037 F170.00
G01 X-5.5081 Y10.1870 F170.00
G01 X-5.3120 Y9.6728 F170.00
G01 X-5.3029 Y9.6504 F170.00
G01 X-5.0913 Y9.1568 F170.00
G01 X-5.0815 Y9.1351 F170.00
G01 X-5.0171 Y9.0000 F170.00
G01 X-5.0815 Y9.1351 F170.00
G00 X-5.0815 Y9.1351
G01 F120.00
G01 Z-1.6000
G01 F170.00
G01 X-5.0857 Y9.1441 F170.00
G01 X-5.0873 Y9.1477 F170.00
G01 X-5.0913 Y9.1568 F170.00
