(G-CODE GENERATED BY FLATCAM v8.994 - www.flatcam.org - Version Date: 2020/11/7)

(Name: tuxpin-Edge_Cuts.gbr_iso_combined_cnc)
(Type: G-code from Geometry)
(Units: MM)

(Created on Sunday, 23 January 2022 at 19:29)

(This preprocessor is used with a motion controller loaded with GRBL firmware.)
(It is configured to be compatible with almost any version of GRBL firmware.)

(TOOL DIAMETER: 1.0 mm)
(Feedrate_XY: 170.0 mm/min)
(Feedrate_Z: 120.0 mm/min)
(Feedrate rapids 1500.0 mm/min)

(Z_Cut: -2.0 mm)
(DepthPerCut: 0.8 mm <=>3 passes)
(Z_Move: 2.0 mm)
(Z Start: None mm)
(Z End: 15.0 mm)
(X,Y End: 0.0000, 0.0000 mm)
(Steps per circle: 64)
(Steps per circle: 64)
(Preprocessor Geometry: GRBL_11_no_M6)

(X range:    0.0593 ...   36.3351  mm)
(Y range:   -0.4040 ...   47.7448  mm)

(Spindle Speed: 11000.0 RPM)
G21
G90
G17
G94


G01 F170.00

M5             
G00 Z15.0000
G00 X0.0000 Y0.0000                
T1
(MSG, Change to Tool Dia = 1.0000)
M0
G00 Z15.0000
        
M03 S11000.0
G4 P5.0
G01 F170.00
G00 X16.9116 Y6.8845
G01 F120.00
G01 Z-0.8000
G01 F170.00
G01 X16.9095 Y6.8783 F170.00
G01 X16.9087 Y6.8759 F170.00
G01 X16.9066 Y6.8697 F170.00
G01 X16.8489 Y6.7064 F170.00
G01 X16.8454 Y6.6968 F170.00
G01 X16.8439 Y6.6929 F170.00
G01 X16.8402 Y6.6833 F170.00
G01 X16.7810 Y6.5354 F170.00
G01 X16.7756 Y6.5225 F170.00
G01 X16.7734 Y6.5174 F170.00
G01 X16.7677 Y6.5047 F170.00
G01 X16.7037 Y6.3675 F170.00
G01 X16.6984 Y6.3564 F170.00
G01 X16.6962 Y6.3521 F170.00
G01 X16.6906 Y6.3412 F170.00
G01 X16.6558 Y6.2752 F170.00
G01 X16.6517 Y6.2676 F170.00
G01 X16.6500 Y6.2646 F170.00
G01 X16.6458 Y6.2570 F170.00
G01 X16.6086 Y6.1920 F170.00
G01 X16.6042 Y6.1845 F170.00
G01 X16.6024 Y6.1815 F170.00
G01 X16.5979 Y6.1740 F170.00
G01 X16.5578 Y6.1094 F170.00
G01 X16.5533 Y6.1022 F170.00
G01 X16.5515 Y6.0993 F170.00
G01 X16.5468 Y6.0922 F170.00
G01 X16.5035 Y6.0274 F170.00
G01 X16.4968 Y6.0176 F170.00
G01 X16.4941 Y6.0137 F170.00
G01 X16.4871 Y6.0040 F170.00
G01 X16.3892 Y5.8714 F170.00
G01 X16.3810 Y5.8607 F170.00
G01 X16.3777 Y5.8565 F170.00
G01 X16.3693 Y5.8460 F170.00
G01 X16.2535 Y5.7057 F170.00
G01 X16.2469 Y5.6978 F170.00
G01 X16.2442 Y5.6947 F170.00
G01 X16.2374 Y5.6869 F170.00
G01 X16.1005 Y5.5344 F170.00
G01 X16.0956 Y5.5290 F170.00
G01 X16.0936 Y5.5268 F170.00
G01 X16.0886 Y5.5214 F170.00
G01 X15.9274 Y5.3520 F170.00
G01 X15.9240 Y5.3485 F170.00
G01 X15.9226 Y5.3472 F170.00
G01 X15.9193 Y5.3437 F170.00
G01 X15.7304 Y5.1528 F170.00
G01 X15.7284 Y5.1507 F170.00
G01 X15.7275 Y5.1499 F170.00
G01 X15.7255 Y5.1479 F170.00
G01 X15.5058 Y4.9309 F170.00
G01 X15.4979 Y4.9233 F170.00
G01 X15.4899 Y4.9159 F170.00
G01 X15.4834 Y4.9100 F170.00
G01 X15.4752 Y4.9028 F170.00
G01 X15.4669 Y4.8957 F170.00
G01 X15.4037 Y4.8434 F170.00
G01 X15.3986 Y4.8392 F170.00
G01 X15.3965 Y4.8376 F170.00
G01 X15.3914 Y4.8334 F170.00
G01 X15.3294 Y4.7848 F170.00
G01 X15.3243 Y4.7808 F170.00
G01 X15.3222 Y4.7793 F170.00
G01 X15.3171 Y4.7754 F170.00
G01 X15.2562 Y4.7301 F170.00
G01 X15.2513 Y4.7265 F170.00
G01 X15.2493 Y4.7250 F170.00
G01 X15.2443 Y4.7215 F170.00
G01 X15.1846 Y4.6793 F170.00
G01 X15.1798 Y4.6759 F170.00
G01 X15.1779 Y4.6746 F170.00
G01 X15.1731 Y4.6713 F170.00
G01 X15.1145 Y4.6320 F170.00
G01 X15.1100 Y4.6290 F170.00
G01 X15.1082 Y4.6278 F170.00
G01 X15.1037 Y4.6249 F170.00
G01 X15.0463 Y4.5881 F170.00
G01 X15.0404 Y4.5843 F170.00
G01 X15.0380 Y4.5829 F170.00
G01 X15.0320 Y4.5792 F170.00
G01 X14.9208 Y4.5123 F170.00
G01 X14.9130 Y4.5076 F170.00
G01 X14.9098 Y4.5058 F170.00
G01 X14.9018 Y4.5013 F170.00
G01 X14.5187 Y4.2893 F170.00
G01 X14.4552 Y4.2501 F170.00
G01 X14.4331 Y4.2350 F170.00
G01 X14.4111 Y4.2190 F170.00
G01 X14.3922 Y4.2040 F170.00
G01 X14.3756 Y4.1896 F170.00
G01 X14.3609 Y4.1756 F170.00
G01 X14.3475 Y4.1614 F170.00
G01 X14.3348 Y4.1464 F170.00
G01 X14.3222 Y4.1299 F170.00
G01 X14.3094 Y4.1111 F170.00
G01 X14.2962 Y4.0892 F170.00
G01 X14.2823 Y4.0634 F170.00
G01 X14.2678 Y4.0329 F170.00
G01 X14.2523 Y3.9958 F170.00
G01 X13.6428 Y0.4848 F170.00
G01 X13.6415 Y0.4773 F170.00
G01 X13.6409 Y0.4743 F170.00
G01 X13.6385 Y0.4623 F170.00
G01 X13.6357 Y0.4503 F170.00
G01 X13.6342 Y0.4437 F170.00
G01 X13.6311 Y0.4318 F170.00
G01 X13.6278 Y0.4200 F170.00
G01 X13.6270 Y0.4171 F170.00
G01 X13.6234 Y0.4054 F170.00
G01 X13.6195 Y0.3937 F170.00
G01 X13.6173 Y0.3873 F170.00
G01 X13.6131 Y0.3758 F170.00
G01 X13.6086 Y0.3644 F170.00
G01 X13.6075 Y0.3615 F170.00
G01 X13.6046 Y0.3544 F170.00
G01 X13.5546 Y0.2359 F170.00
G01 X13.5523 Y0.2305 F170.00
G01 X13.5514 Y0.2283 F170.00
G01 X13.5463 Y0.2171 F170.00
G01 X13.5410 Y0.2061 F170.00
G01 X13.5377 Y0.1994 F170.00
G01 X13.5321 Y0.1884 F170.00
G01 X13.5263 Y0.1776 F170.00
G01 X13.5251 Y0.1756 F170.00
G01 X13.5222 Y0.1705 F170.00
G01 X13.4675 Y0.0750 F170.00
G01 X13.4602 Y0.0627 F170.00
G01 X13.4572 Y0.0578 F170.00
G01 X13.4507 Y0.0474 F170.00
G01 X13.4439 Y0.0372 F170.00
G01 X13.4416 Y0.0338 F170.00
G01 X13.4345 Y0.0237 F170.00
G01 X13.4273 Y0.0138 F170.00
G01 X13.4238 Y0.0093 F170.00
G01 X13.4150 Y-0.0020 F170.00
G01 X13.3559 Y-0.0758 F170.00
G01 X13.3483 Y-0.0850 F170.00
G01 X13.3405 Y-0.0941 F170.00
G01 X13.3341 Y-0.1012 F170.00
G01 X13.3259 Y-0.1103 F170.00
G01 X13.3174 Y-0.1192 F170.00
G01 X13.3172 Y-0.1194 F170.00
G01 X13.3086 Y-0.1281 F170.00
G01 X13.2997 Y-0.1365 F170.00
G01 X13.2927 Y-0.1430 F170.00
G01 X13.2838 Y-0.1511 F170.00
G01 X13.2748 Y-0.1589 F170.00
G01 X13.2116 Y-0.2122 F170.00
G01 X13.2055 Y-0.2173 F170.00
G01 X13.2030 Y-0.2193 F170.00
G01 X13.1934 Y-0.2270 F170.00
G01 X13.1836 Y-0.2344 F170.00
G01 X13.1783 Y-0.2383 F170.00
G01 X13.1683 Y-0.2455 F170.00
G01 X13.1582 Y-0.2524 F170.00
G01 X13.1555 Y-0.2542 F170.00
G01 X13.1452 Y-0.2608 F170.00
G01 X13.1348 Y-0.2672 F170.00
G01 X13.1291 Y-0.2706 F170.00
G01 X13.1185 Y-0.2768 F170.00
G01 X13.1077 Y-0.2827 F170.00
G01 X13.1049 Y-0.2842 F170.00
G01 X13.0978 Y-0.2879 F170.00
G01 X13.0311 Y-0.3220 F170.00
G01 X13.0203 Y-0.3273 F170.00
G01 X13.0160 Y-0.3294 F170.00
G01 X13.0049 Y-0.3346 F170.00
G01 X12.9937 Y-0.3395 F170.00
G01 X12.9890 Y-0.3414 F170.00
G01 X12.9777 Y-0.3461 F170.00
G01 X12.9662 Y-0.3504 F170.00
G01 X12.9617 Y-0.3521 F170.00
G01 X12.9501 Y-0.3562 F170.00
G01 X12.9384 Y-0.3599 F170.00
G01 X12.9336 Y-0.3614 F170.00
G01 X12.9219 Y-0.3649 F170.00
G01 X12.9100 Y-0.3681 F170.00
G01 X12.9054 Y-0.3693 F170.00
G01 X12.8938 Y-0.3722 F170.00
G01 X12.8238 Y-0.3884 F170.00
G01 X12.8150 Y-0.3904 F170.00
G01 X12.8114 Y-0.3912 F170.00
G01 X12.7994 Y-0.3936 F170.00
G01 X12.7873 Y-0.3957 F170.00
G01 X12.7812 Y-0.3967 F170.00
G01 X12.7691 Y-0.3985 F170.00
G01 X12.7569 Y-0.4000 F170.00
G01 X12.7533 Y-0.4005 F170.00
G01 X12.7411 Y-0.4017 F170.00
G01 X12.7289 Y-0.4026 F170.00
G01 X12.7227 Y-0.4030 F170.00
G01 X12.7104 Y-0.4036 F170.00
G01 X12.6981 Y-0.4039 F170.00
G01 X12.6945 Y-0.4040 F170.00
G01 X12.6855 Y-0.4040 F170.00
G01 X12.6127 Y-0.4037 F170.00
G01 X12.6114 Y-0.4037 F170.00
G01 X12.5992 Y-0.4035 F170.00
G01 X12.5869 Y-0.4030 F170.00
G01 X12.5775 Y-0.4024 F170.00
G01 X12.5652 Y-0.4016 F170.00
G01 X12.5530 Y-0.4005 F170.00
G01 X12.5526 Y-0.4005 F170.00
G01 X12.5404 Y-0.3990 F170.00
G01 X12.5283 Y-0.3973 F170.00
G01 X12.5189 Y-0.3959 F170.00
G01 X12.5068 Y-0.3938 F170.00
G01 X12.4948 Y-0.3915 F170.00
G01 X12.4935 Y-0.3913 F170.00
G01 X12.4184 Y-0.3757 F170.00
G01 X12.4030 Y-0.3723 F170.00
G01 X12.3969 Y-0.3708 F170.00
G01 X12.3850 Y-0.3678 F170.00
G01 X12.3731 Y-0.3645 F170.00
G01 X12.3698 Y-0.3635 F170.00
G01 X12.3580 Y-0.3599 F170.00
G01 X12.3464 Y-0.3560 F170.00
G01 X12.3404 Y-0.3539 F170.00
G01 X12.3256 Y-0.3485 F170.00
G01 X12.2485 Y-0.3190 F170.00
G01 X12.2419 Y-0.3165 F170.00
G01 X12.2393 Y-0.3154 F170.00
G01 X12.2280 Y-0.3107 F170.00
G01 X12.2168 Y-0.3058 F170.00
G01 X12.2104 Y-0.3029 F170.00
G01 X12.1993 Y-0.2976 F170.00
G01 X12.1883 Y-0.2921 F170.00
G01 X12.1858 Y-0.2908 F170.00
G01 X12.1796 Y-0.2876 F170.00
G01 X12.1008 Y-0.2454 F170.00
G01 X12.0901 Y-0.2394 F170.00
G01 X12.0795 Y-0.2333 F170.00
G01 X12.0711 Y-0.2282 F170.00
G01 X12.0606 Y-0.2218 F170.00
G01 X12.0504 Y-0.2151 F170.00
G01 X11.9703 Y-0.1615 F170.00
G01 X11.9624 Y-0.1561 F170.00
G01 X11.9546 Y-0.1505 F170.00
G01 X11.9483 Y-0.1460 F170.00
G01 X11.9406 Y-0.1402 F170.00
G01 X11.9330 Y-0.1344 F170.00
G01 X11.8522 Y-0.0708 F170.00
G01 X11.8438 Y-0.0640 F170.00
G01 X11.8356 Y-0.0571 F170.00
G01 X11.8291 Y-0.0515 F170.00
G01 X11.8210 Y-0.0445 F170.00
G01 X11.8131 Y-0.0372 F170.00
G01 X11.6506 Y0.1150 F170.00
G01 X11.6434 Y0.1219 F170.00
G01 X11.6363 Y0.1289 F170.00
G01 X11.6308 Y0.1345 F170.00
G01 X11.6239 Y0.1417 F170.00
G01 X11.6171 Y0.1489 F170.00
G01 X11.4560 Y0.3258 F170.00
G01 X11.4472 Y0.3357 F170.00
G01 X11.4438 Y0.3397 F170.00
G01 X11.4353 Y0.3498 F170.00
G01 X11.3382 Y0.4684 F170.00
G01 X11.3296 Y0.4465 F170.00
G01 X11.3258 Y0.4371 F170.00
G01 X11.3217 Y0.4277 F170.00
G01 X11.3184 Y0.4202 F170.00
G01 X11.3142 Y0.4109 F170.00
G01 X11.3098 Y0.4017 F170.00
G01 X11.2968 Y0.3752 F170.00
G01 X11.2912 Y0.3643 F170.00
G01 X11.2854 Y0.3535 F170.00
G01 X11.2807 Y0.3451 F170.00
G01 X11.2746 Y0.3344 F170.00
G01 X11.2683 Y0.3239 F170.00
G01 X11.2535 Y0.3003 F170.00
G01 X11.2505 Y0.2955 F170.00
G01 X11.2493 Y0.2937 F170.00
G01 X11.2426 Y0.2834 F170.00
G01 X11.2356 Y0.2733 F170.00
G01 X11.2312 Y0.2671 F170.00
G01 X11.2240 Y0.2572 F170.00
G01 X11.2165 Y0.2475 F170.00
G01 X11.2151 Y0.2457 F170.00
G01 X11.2116 Y0.2413 F170.00
G01 X11.1955 Y0.2213 F170.00
G01 X11.1887 Y0.2129 F170.00
G01 X11.1859 Y0.2097 F170.00
G01 X11.1779 Y0.2004 F170.00
G01 X11.1696 Y0.1913 F170.00
G01 X11.1659 Y0.1872 F170.00
G01 X11.1574 Y0.1783 F170.00
G01 X11.1487 Y0.1697 F170.00
G01 X11.1457 Y0.1667 F170.00
G01 X11.1379 Y0.1592 F170.00
G01 X11.1198 Y0.1423 F170.00
G01 X11.1086 Y0.1321 F170.00
G01 X11.1040 Y0.1281 F170.00
G01 X11.0947 Y0.1202 F170.00
G01 X11.0852 Y0.1124 F170.00
G01 X11.0823 Y0.1100 F170.00
G01 X11.0726 Y0.1025 F170.00
G01 X11.0627 Y0.0952 F170.00
G01 X11.0578 Y0.0917 F170.00
G01 X11.0454 Y0.0831 F170.00
G01 X11.0252 Y0.0694 F170.00
G01 X11.0105 Y0.0599 F170.00
G01 X11.0045 Y0.0562 F170.00
G01 X10.9940 Y0.0498 F170.00
G01 X10.9834 Y0.0437 F170.00
G01 X10.9809 Y0.0423 F170.00
G01 X10.9701 Y0.0365 F170.00
G01 X10.9592 Y0.0309 F170.00
G01 X10.9529 Y0.0278 F170.00
G01 X10.9371 Y0.0203 F170.00
G01 X10.9146 Y0.0101 F170.00
G01 X10.9105 Y0.0083 F170.00
G01 X10.9089 Y0.0076 F170.00
G01 X10.9048 Y0.0058 F170.00
G01 X10.8922 Y0.0003 F170.00
G01 X10.8790 Y-0.0051 F170.00
G01 X10.8737 Y-0.0072 F170.00
G01 X10.8604 Y-0.0123 F170.00
G01 X10.8256 Y-0.0250 F170.00
G01 X10.8126 Y-0.0296 F170.00
G01 X10.8074 Y-0.0313 F170.00
G01 X10.7942 Y-0.0355 F170.00
G01 X10.7700 Y-0.0429 F170.00
G01 X10.7590 Y-0.0461 F170.00
G01 X10.7546 Y-0.0473 F170.00
G01 X10.7435 Y-0.0503 F170.00
G01 X10.7155 Y-0.0574 F170.00
G01 X10.7026 Y-0.0605 F170.00
G01 X10.6975 Y-0.0616 F170.00
G01 X10.6846 Y-0.0644 F170.00
G01 X10.6533 Y-0.0706 F170.00
G01 X10.6383 Y-0.0734 F170.00
G01 X10.6323 Y-0.0744 F170.00
G01 X10.6173 Y-0.0767 F170.00
G01 X10.5834 Y-0.0813 F170.00
G01 X10.5659 Y-0.0834 F170.00
G01 X10.5588 Y-0.0841 F170.00
G01 X10.5412 Y-0.0855 F170.00
G01 X10.5053 Y-0.0879 F170.00
G01 X10.4951 Y-0.0884 F170.00
G01 X10.4848 Y-0.0888 F170.00
G01 X10.4766 Y-0.0890 F170.00
G01 X10.4664 Y-0.0891 F170.00
G01 X10.4561 Y-0.0890 F170.00
G01 X10.4188 Y-0.0884 F170.00
G01 X10.4015 Y-0.0878 F170.00
G01 X10.3945 Y-0.0874 F170.00
G01 X10.3772 Y-0.0862 F170.00
G01 X10.3582 Y-0.0846 F170.00
G01 X10.3456 Y-0.0833 F170.00
G01 X10.3405 Y-0.0827 F170.00
G01 X10.3279 Y-0.0812 F170.00
G01 X10.3087 Y-0.0785 F170.00
G01 X10.2953 Y-0.0765 F170.00
G01 X10.2899 Y-0.0756 F170.00
G01 X10.2765 Y-0.0732 F170.00
G01 X10.2573 Y-0.0694 F170.00
G01 X10.2430 Y-0.0664 F170.00
G01 X10.2374 Y-0.0652 F170.00
G01 X10.2232 Y-0.0618 F170.00
G01 X10.2040 Y-0.0569 F170.00
G01 X10.1892 Y-0.0528 F170.00
G01 X10.1832 Y-0.0511 F170.00
G01 X10.1685 Y-0.0466 F170.00
G01 X10.1494 Y-0.0405 F170.00
G01 X10.1340 Y-0.0352 F170.00
G01 X10.1279 Y-0.0330 F170.00
G01 X10.1127 Y-0.0273 F170.00
G01 X10.0937 Y-0.0198 F170.00
G01 X10.0780 Y-0.0133 F170.00
G01 X10.0718 Y-0.0106 F170.00
G01 X10.0563 Y-0.0035 F170.00
G01 X10.0375 Y0.0054 F170.00
G01 X10.0217 Y0.0133 F170.00
G01 X10.0155 Y0.0166 F170.00
G01 X9.9999 Y0.0250 F170.00
G01 X9.9815 Y0.0355 F170.00
G01 X9.9659 Y0.0447 F170.00
G01 X9.9597 Y0.0485 F170.00
G01 X9.9444 Y0.0583 F170.00
G01 X9.9263 Y0.0703 F170.00
G01 X9.9187 Y0.0755 F170.00
G01 X9.9111 Y0.0809 F170.00
G01 X9.9051 Y0.0852 F170.00
G01 X9.8977 Y0.0907 F170.00
G01 X9.8903 Y0.0963 F170.00
G01 X9.8727 Y0.1100 F170.00
G01 X9.8654 Y0.1158 F170.00
G01 X9.8582 Y0.1218 F170.00
G01 X9.8525 Y0.1266 F170.00
G01 X9.8455 Y0.1326 F170.00
G01 X9.8385 Y0.1388 F170.00
G01 X9.8214 Y0.1543 F170.00
G01 X9.8146 Y0.1606 F170.00
G01 X9.8079 Y0.1670 F170.00
G01 X9.8026 Y0.1722 F170.00
G01 X9.7960 Y0.1787 F170.00
G01 X9.7896 Y0.1854 F170.00
G01 X9.7731 Y0.2028 F170.00
G01 X9.7715 Y0.2044 F170.00
G01 X9.7704 Y0.2056 F170.00
G01 X9.3859 Y0.6153 F170.00
G01 X9.3800 Y0.6217 F170.00
G01 X9.3777 Y0.6243 F170.00
G01 X9.3719 Y0.6308 F170.00
G01 X8.9997 Y1.0562 F170.00
G01 X8.9944 Y1.0623 F170.00
G01 X8.9924 Y1.0648 F170.00
G01 X8.9872 Y1.0710 F170.00
G01 X8.6266 Y1.5111 F170.00
G01 X8.6219 Y1.5170 F170.00
G01 X8.6200 Y1.5193 F170.00
G01 X8.6154 Y1.5253 F170.00
G01 X8.2657 Y1.9792 F170.00
G01 X8.2615 Y1.9847 F170.00
G01 X8.2599 Y1.9870 F170.00
G01 X8.2558 Y1.9925 F170.00
G01 X7.9163 Y2.4595 F170.00
G01 X7.9126 Y2.4646 F170.00
G01 X7.9112 Y2.4667 F170.00
G01 X7.9075 Y2.4719 F170.00
G01 X7.5776 Y2.9509 F170.00
G01 X7.5743 Y2.9557 F170.00
G01 X7.5730 Y2.9576 F170.00
G01 X7.5698 Y2.9625 F170.00
G01 X7.2487 Y3.4526 F170.00
G01 X7.2459 Y3.4571 F170.00
G01 X7.2447 Y3.4588 F170.00
G01 X7.2419 Y3.4633 F170.00
G01 X6.9881 Y3.8691 F170.00
G01 X6.4960 Y4.2385 F170.00
G01 X6.4919 Y4.2416 F170.00
G01 X6.4903 Y4.2428 F170.00
G01 X6.4862 Y4.2460 F170.00
G01 X5.9453 Y4.6695 F170.00
G01 X5.9400 Y4.6738 F170.00
G01 X5.9379 Y4.6755 F170.00
G01 X5.9326 Y4.6798 F170.00
G01 X5.6752 Y4.8930 F170.00
G01 X5.6705 Y4.8969 F170.00
G01 X5.6687 Y4.8985 F170.00
G01 X5.6640 Y4.9024 F170.00
G01 X5.4143 Y5.1198 F170.00
G01 X5.4089 Y5.1245 F170.00
G01 X5.4068 Y5.1265 F170.00
G01 X5.4015 Y5.1313 F170.00
G01 X5.1584 Y5.3553 F170.00
G01 X5.1525 Y5.3609 F170.00
G01 X5.1502 Y5.3631 F170.00
G01 X5.1444 Y5.3687 F170.00
G01 X4.9072 Y5.6019 F170.00
G01 X4.9010 Y5.6081 F170.00
G01 X4.8986 Y5.6107 F170.00
G01 X4.8925 Y5.6170 F170.00
G01 X4.6603 Y5.8619 F170.00
G01 X4.6540 Y5.8687 F170.00
G01 X4.6515 Y5.8714 F170.00
G01 X4.6454 Y5.8783 F170.00
G01 X4.4174 Y6.1374 F170.00
G01 X4.4112 Y6.1445 F170.00
G01 X4.4087 Y6.1474 F170.00
G01 X4.4027 Y6.1547 F170.00
G01 X4.1780 Y6.4304 F170.00
G01 X4.1721 Y6.4378 F170.00
G01 X4.1697 Y6.4408 F170.00
G01 X4.1640 Y6.4483 F170.00
G01 X3.9417 Y6.7432 F170.00
G01 X3.9362 Y6.7506 F170.00
G01 X3.9340 Y6.7536 F170.00
G01 X3.9287 Y6.7611 F170.00
G01 X3.7080 Y7.0776 F170.00
G01 X3.7030 Y7.0849 F170.00
G01 X3.7010 Y7.0879 F170.00
G01 X3.6961 Y7.0953 F170.00
G01 X3.4762 Y7.4359 F170.00
G01 X3.4717 Y7.4429 F170.00
G01 X3.4700 Y7.4458 F170.00
G01 X3.4656 Y7.4529 F170.00
G01 X3.2455 Y7.8201 F170.00
G01 X3.2416 Y7.8268 F170.00
G01 X3.2400 Y7.8294 F170.00
G01 X3.2362 Y7.8362 F170.00
G01 X3.0152 Y8.2324 F170.00
G01 X3.0108 Y8.2404 F170.00
G01 X3.0091 Y8.2437 F170.00
G01 X3.0034 Y8.2546 F170.00
G01 X2.9980 Y8.2656 F170.00
G01 X2.9954 Y8.2712 F170.00
G01 X2.9903 Y8.2823 F170.00
G01 X2.9855 Y8.2936 F170.00
G01 X2.9841 Y8.2970 F170.00
G01 X2.9806 Y8.3054 F170.00
G01 X2.7286 Y8.9472 F170.00
G01 X2.7256 Y8.9552 F170.00
G01 X2.7244 Y8.9584 F170.00
G01 X2.7215 Y8.9664 F170.00
G01 X2.4953 Y9.6056 F170.00
G01 X2.4927 Y9.6130 F170.00
G01 X2.4917 Y9.6160 F170.00
G01 X2.4893 Y9.6234 F170.00
G01 X2.2860 Y10.2605 F170.00
G01 X2.2839 Y10.2672 F170.00
G01 X2.2831 Y10.2699 F170.00
G01 X2.2811 Y10.2765 F170.00
G01 X2.0977 Y10.9121 F170.00
G01 X2.0953 Y10.9204 F170.00
G01 X2.0944 Y10.9237 F170.00
G01 X2.0923 Y10.9321 F170.00
G01 X1.7733 Y12.2000 F170.00
G01 X1.7713 Y12.2079 F170.00
G01 X1.7706 Y12.2111 F170.00
G01 X1.7688 Y12.2191 F170.00
